; generated by Slic3r 1.33.8-prusa3d-win64 on 2017-04-22 at 10:54:33

; external perimeters extrusion width = 0.45mm
; perimeters extrusion width = 0.45mm
; infill extrusion width = 0.45mm
; solid infill extrusion width = 0.45mm
; top infill extrusion width = 0.45mm

M107
M115 U3.0.10 ; tell printer latest fw version
M83  ; extruder relative mode
M104 S215 ; set extruder temp
M140 S55 ; set bed temp
M190 S55 ; wait for bed temp
M109 S215 ; wait for extruder temp
G28 W ; home all without mesh bed level
G80 ; mesh bed leveling
G1 Y-3.0 F1000.0 ; go outside pritn area
G1 X60.0 E9.0  F1000.0 ; intro line
G1 X100.0 E12.5  F1000.0 ; intro line
G21 ; set units to millimeters
G90 ; use absolute coordinates
M83 ; use relative distances for extrusion
G1 E-0.80000 F2100.00000
G1 Z0.200 F7200.000
G1 X117.747 Y100.991 F7200.000
G1 E0.80000 F2100.00000
M204 S1000
G1 F1852.594
G1 X119.272 Y99.291 E0.07159
G1 X120.838 Y97.875 E0.06620
G1 X121.061 Y97.694 E0.00899
G1 X122.770 Y96.469 E0.06594
G1 X124.607 Y95.450 E0.06585
G1 X126.361 Y94.757 E0.05914
G1 X126.754 Y94.641 E0.01284
G1 X128.249 Y94.324 E0.04791
G1 X128.590 Y94.278 E0.01079
G1 X130.107 Y94.270 E0.04758
G1 X130.414 Y94.289 E0.00964
G1 X130.768 Y94.355 E0.01130
G1 X131.949 Y94.679 E0.03840
G1 X132.285 Y94.798 E0.01118
G1 X132.603 Y94.959 E0.01118
G1 X133.742 Y95.740 E0.04329
G1 X134.020 Y95.982 E0.01156
G1 X134.262 Y96.260 E0.01156
G1 X134.963 Y97.273 E0.03862
G1 X135.135 Y97.571 E0.01079
G1 X135.303 Y97.989 E0.01413
G1 X135.632 Y99.180 E0.03875
G1 X135.690 Y99.444 E0.00848
G1 X135.723 Y99.717 E0.00861
G1 X135.729 Y101.239 E0.04773
G1 X135.708 Y101.550 E0.00976
G1 X135.355 Y103.266 E0.05495
G1 X135.240 Y103.647 E0.01246
G1 X134.553 Y105.387 E0.05867
G1 X133.589 Y107.131 E0.06248
G1 X133.426 Y107.387 E0.00951
G1 X132.300 Y108.947 E0.06033
G1 X132.132 Y109.154 E0.00835
G1 X130.719 Y110.718 E0.06607
G1 X129.153 Y112.133 E0.06620
G1 X128.939 Y112.306 E0.00861
G1 X127.219 Y113.537 E0.06633
G1 X125.393 Y114.550 E0.06546
G1 X123.639 Y115.243 E0.05914
G1 X123.246 Y115.359 E0.01284
G1 X121.751 Y115.676 E0.04791
G1 X121.418 Y115.721 E0.01053
G1 X119.897 Y115.730 E0.04770
G1 X119.586 Y115.711 E0.00976
G1 X119.232 Y115.645 E0.01130
G1 X118.071 Y115.327 E0.03775
G1 X117.737 Y115.212 E0.01105
G1 X117.418 Y115.053 E0.01118
G1 X116.347 Y114.326 E0.04059
G1 X116.042 Y114.078 E0.01233
G1 X115.776 Y113.788 E0.01233
G1 X114.926 Y112.545 E0.04722
G1 X114.804 Y112.299 E0.00861
G1 X114.707 Y112.042 E0.00861
G1 X114.354 Y110.764 E0.04158
G1 X114.297 Y110.475 E0.00925
G1 X114.271 Y110.181 E0.00925
G1 X114.282 Y108.544 E0.05133
G1 X114.325 Y108.243 E0.00951
G1 X114.639 Y106.762 E0.04750
G1 X114.730 Y106.434 E0.01066
G1 X115.381 Y104.763 E0.05623
G1 X115.526 Y104.460 E0.01053
G1 X116.489 Y102.739 E0.06184
G1 X117.711 Y101.038 E0.06564
G1 X118.028 Y101.244 F7200.000
G1 F1852.594
G1 X119.637 Y99.463 E0.07525
G1 X121.192 Y98.069 E0.06549
G1 X122.961 Y96.795 E0.06834
G1 X124.769 Y95.790 E0.06487
G1 X126.489 Y95.111 E0.05797
G1 X126.828 Y95.011 E0.01110
G1 X128.313 Y94.696 E0.04760
G1 X128.573 Y94.658 E0.00824
G1 X130.095 Y94.647 E0.04771
G1 X130.364 Y94.663 E0.00847
G1 X130.679 Y94.721 E0.01002
G1 X131.833 Y95.038 E0.03753
G1 X132.131 Y95.142 E0.00991
G1 X132.413 Y95.285 E0.00991
G1 X133.490 Y96.022 E0.04091
G1 X133.741 Y96.237 E0.01038
G1 X133.962 Y96.489 E0.01050
G1 X134.646 Y97.478 E0.03770
G1 X134.794 Y97.731 E0.00919
G1 X134.960 Y98.160 E0.01443
G1 X135.283 Y99.336 E0.03821
G1 X135.344 Y99.700 E0.01157
G1 X135.352 Y101.226 E0.04786
G1 X135.335 Y101.496 E0.00847
G1 X134.987 Y103.182 E0.05400
G1 X134.889 Y103.511 E0.01074
G1 X134.213 Y105.223 E0.05773
G1 X133.262 Y106.944 E0.06164
G1 X133.121 Y107.165 E0.00824
G1 X131.856 Y108.897 E0.06724
G1 X130.451 Y110.453 E0.06571
G1 X128.904 Y111.850 E0.06537
G1 X127.030 Y113.211 E0.07262
G1 X125.231 Y114.210 E0.06451
G1 X123.511 Y114.889 E0.05797
G1 X123.176 Y114.989 E0.01098
G1 X121.687 Y115.304 E0.04772
G1 X121.435 Y115.342 E0.00800
G1 X119.833 Y115.352 E0.05021
G1 X119.560 Y115.327 E0.00859
G1 X119.288 Y115.270 E0.00871
G1 X118.127 Y114.950 E0.03777
G1 X117.809 Y114.832 E0.01062
G1 X117.500 Y114.660 E0.01110
G1 X116.569 Y114.021 E0.03542
G1 X116.300 Y113.802 E0.01086
G1 X116.063 Y113.544 E0.01098
G1 X115.247 Y112.346 E0.04545
G1 X115.062 Y111.913 E0.01478
G1 X114.715 Y110.653 E0.04096
G1 X114.668 Y110.406 E0.00788
G1 X114.648 Y110.156 E0.00788
G1 X114.658 Y108.569 E0.04977
G1 X114.696 Y108.312 E0.00812
G1 X115.009 Y106.836 E0.04732
G1 X115.089 Y106.550 E0.00931
G1 X115.730 Y104.906 E0.05535
G1 X115.855 Y104.644 E0.00907
G1 X116.805 Y102.945 E0.06104
G1 X117.992 Y101.292 E0.06382
G1 F5760
G1 X119.460 Y99.661 E-0.76000
G1 E-0.04000 F2100.00000
G1 X131.378 Y98.622 F7200.000
G1 E0.80000 F2100.00000
G1 F1482.075
G1 X131.784 Y99.213 E0.02249
G1 X132.012 Y100.040 E0.02689
G1 X132.011 Y101.114 E0.03368
G1 X131.740 Y102.389 E0.04087
G1 X131.190 Y103.795 E0.04734
G1 X130.375 Y105.260 E0.05255
G1 X129.327 Y106.713 E0.05618
G1 X128.089 Y108.089 E0.05803
G1 X126.713 Y109.327 E0.05803
G1 X125.260 Y110.375 E0.05618
G1 X123.795 Y111.190 E0.05255
G1 X122.389 Y111.740 E0.04734
G1 X121.114 Y112.011 E0.04087
G1 X120.040 Y112.012 E0.03368
G1 X119.213 Y111.784 E0.02689
G1 X118.622 Y111.378 E0.02249
G1 X118.216 Y110.787 E0.02249
G1 X117.988 Y109.960 E0.02689
G1 X117.989 Y108.886 E0.03368
G1 X118.260 Y107.611 E0.04087
G1 X118.810 Y106.205 E0.04734
G1 X119.625 Y104.740 E0.05255
G1 X120.673 Y103.287 E0.05618
G1 X121.911 Y101.911 E0.05803
G1 X123.287 Y100.673 E0.05803
G1 X124.740 Y99.625 E0.05618
G1 X126.205 Y98.810 E0.05255
G1 X127.611 Y98.260 E0.04734
G1 X128.886 Y97.989 E0.04087
G1 X129.960 Y97.988 E0.03368
G1 X130.787 Y98.216 E0.02689
G1 X131.328 Y98.588 E0.02061
G1 X131.649 Y98.351 F7200.000
G1 F1482.075
G1 X132.131 Y99.052 E0.02667
G1 X132.389 Y99.989 E0.03049
G1 X132.388 Y101.154 E0.03652
G1 X132.102 Y102.498 E0.04307
G1 X131.532 Y103.956 E0.04911
G1 X130.694 Y105.463 E0.05404
G1 X129.621 Y106.950 E0.05751
G1 X128.356 Y108.356 E0.05929
G1 X126.950 Y109.621 E0.05929
G1 X125.463 Y110.694 E0.05751
G1 X123.956 Y111.532 E0.05404
G1 X122.498 Y112.102 E0.04911
G1 X121.154 Y112.388 E0.04307
G1 X119.989 Y112.389 E0.03652
G1 X119.052 Y112.131 E0.03049
G1 X118.351 Y111.649 E0.02667
G1 X117.869 Y110.948 E0.02667
G1 X117.611 Y110.011 E0.03049
G1 X117.612 Y108.846 E0.03652
G1 X117.898 Y107.502 E0.04307
G1 X118.468 Y106.044 E0.04911
G1 X119.306 Y104.537 E0.05404
G1 X120.379 Y103.050 E0.05751
G1 X121.644 Y101.644 E0.05929
G1 X123.050 Y100.379 E0.05929
G1 X124.537 Y99.306 E0.05751
G1 X126.044 Y98.468 E0.05404
G1 X127.502 Y97.898 E0.04911
G1 X128.846 Y97.612 E0.04307
G1 X130.011 Y97.611 E0.03652
G1 X130.948 Y97.869 E0.03049
G1 X131.599 Y98.317 E0.02479
G1 X131.920 Y98.080 F7200.000
G1 F926.297
G1 X132.478 Y98.890 E0.03085
G1 X132.766 Y99.939 E0.03409
G1 X132.765 Y101.194 E0.03935
G1 X132.465 Y102.606 E0.04528
G1 X131.874 Y104.117 E0.05088
G1 X131.013 Y105.665 E0.05554
G1 X129.915 Y107.187 E0.05884
G1 X128.623 Y108.623 E0.06055
G1 X127.187 Y109.915 E0.06055
G1 X125.665 Y111.013 E0.05884
G1 X124.117 Y111.874 E0.05554
G1 X122.606 Y112.465 E0.05088
G1 X121.194 Y112.765 E0.04528
G1 X119.939 Y112.766 E0.03935
G1 X118.890 Y112.478 E0.03409
G1 X118.080 Y111.920 E0.03085
G1 X117.522 Y111.110 E0.03085
G1 X117.234 Y110.061 E0.03409
G1 X117.235 Y108.806 E0.03935
G1 X117.535 Y107.394 E0.04528
G1 X118.126 Y105.883 E0.05088
G1 X118.987 Y104.335 E0.05554
G1 X120.085 Y102.813 E0.05884
G1 X121.377 Y101.377 E0.06055
G1 X122.813 Y100.085 E0.06055
G1 X124.335 Y98.987 E0.05884
G1 X125.883 Y98.126 E0.05554
G1 X127.394 Y97.535 E0.05088
G1 X128.806 Y97.235 E0.04528
G1 X130.061 Y97.234 E0.03935
G1 X131.110 Y97.522 E0.03409
G1 X131.871 Y98.046 E0.02897
G1 X131.816 Y98.466 F7200.000
G1 F5760
G1 X132.478 Y98.890 E-0.36024
G1 F5760
G1 X132.766 Y99.939 E-0.37652
G1 F5760
G1 X132.766 Y100.006 E-0.02324
G1 E-0.04000 F2100.00000
G1 X131.899 Y100.084 F7200.000
G1 E0.80000 F2100.00000
G1 F1482.075
G1 X130.148 Y98.333 E0.07819
G1 X129.922 Y98.271 E0.00738
G1 X129.549 Y98.272 E0.01178
G1 X131.728 Y100.451 E0.09732
G1 X131.728 Y100.988 E0.01694
G1 X129.012 Y98.272 E0.12125
G1 X128.916 Y98.272 E0.00306
G1 X128.553 Y98.349 E0.01172
G1 X131.651 Y101.447 E0.13834
G1 X131.557 Y101.890 E0.01430
G1 X128.110 Y98.443 E0.15392
G1 X127.670 Y98.541 E0.01422
G1 X131.459 Y102.330 E0.16921
G1 X131.308 Y102.716 E0.01309
G1 X127.284 Y98.692 E0.17971
G1 X126.898 Y98.843 E0.01309
G1 X131.157 Y103.102 E0.19020
G1 X131.006 Y103.488 E0.01309
G1 X126.512 Y98.994 E0.20070
G1 X126.325 Y99.066 E0.00632
G1 X126.147 Y99.166 E0.00645
G1 X130.834 Y103.853 E0.20930
G1 X130.642 Y104.198 E0.01247
G1 X125.802 Y99.358 E0.21614
G1 X125.457 Y99.550 E0.01247
G1 X130.450 Y104.543 E0.22298
G1 X130.258 Y104.888 E0.01247
G1 X125.112 Y99.742 E0.22981
G1 X124.892 Y99.864 E0.00794
G1 X124.779 Y99.946 E0.00441
G1 X130.054 Y105.221 E0.23557
G1 X129.829 Y105.533 E0.01215
G1 X124.467 Y100.171 E0.23945
G1 X124.155 Y100.396 E0.01215
G1 X129.604 Y105.845 E0.24333
G1 X129.379 Y106.157 E0.01215
G1 X123.843 Y100.621 E0.24721
G1 X123.531 Y100.846 E0.01215
G1 X129.154 Y106.469 E0.25109
G1 X128.906 Y106.758 E0.01202
G1 X123.242 Y101.094 E0.25291
G1 X122.960 Y101.349 E0.01201
G1 X128.651 Y107.040 E0.25417
G1 X128.397 Y107.323 E0.01201
G1 X122.677 Y101.603 E0.25543
G1 X122.394 Y101.857 E0.01201
G1 X128.143 Y107.606 E0.25669
G1 X127.888 Y107.888 E0.01201
G1 X122.112 Y102.112 E0.25794
G1 X121.857 Y102.394 E0.01201
G1 X127.606 Y108.143 E0.25669
G1 X127.323 Y108.397 E0.01201
G1 X121.603 Y102.677 E0.25543
G1 X121.348 Y102.960 E0.01201
G1 X127.040 Y108.652 E0.25417
G1 X126.758 Y108.906 E0.01201
G1 X121.094 Y103.242 E0.25291
G1 X120.846 Y103.531 E0.01202
G1 X126.469 Y109.154 E0.25109
G1 X126.157 Y109.379 E0.01215
G1 X120.621 Y103.843 E0.24721
G1 X120.396 Y104.155 E0.01215
G1 X125.845 Y109.604 E0.24333
G1 X125.533 Y109.829 E0.01215
G1 X120.171 Y104.467 E0.23945
G1 X119.946 Y104.779 E0.01215
G1 X125.221 Y110.054 E0.23557
G1 X124.888 Y110.258 E0.01233
G1 X119.742 Y105.112 E0.22981
G1 X119.550 Y105.457 E0.01247
G1 X124.543 Y110.450 E0.22297
G1 X124.198 Y110.642 E0.01247
G1 X119.358 Y105.802 E0.21614
G1 X119.166 Y106.147 E0.01247
G1 X123.853 Y110.834 E0.20930
G1 X123.675 Y110.934 E0.00645
G1 X123.488 Y111.006 E0.00632
G1 X118.994 Y106.512 E0.20070
G1 X118.843 Y106.898 E0.01309
G1 X123.102 Y111.157 E0.19020
G1 X122.716 Y111.308 E0.01309
G1 X118.692 Y107.284 E0.17971
G1 X118.541 Y107.670 E0.01309
G1 X122.330 Y111.459 E0.16921
G1 X121.890 Y111.557 E0.01422
G1 X118.443 Y108.110 E0.15392
G1 X118.349 Y108.553 E0.01430
G1 X121.447 Y111.651 E0.13834
G1 X121.084 Y111.728 E0.01172
G1 X120.987 Y111.728 E0.00306
G1 X118.272 Y109.013 E0.12125
G1 X118.272 Y109.549 E0.01694
G1 X120.451 Y111.728 E0.09732
G1 X120.078 Y111.729 E0.01178
G1 X119.852 Y111.667 E0.00739
G1 X118.101 Y109.916 E0.07818
M106 S255
M104 S205 ; set temperature
G1 F5760
G1 X119.653 Y111.468 E-0.76000
G1 E-0.04000 F2100.00000
G1 Z0.350 F7200.000
G1 X118.692 Y111.308 F7200.000
G1 E0.80000 F2100.00000
M204 S800
G1 F1031.780
G1 X118.304 Y110.746 E0.01780
G1 X118.085 Y109.947 E0.02158
G1 X118.086 Y108.896 E0.02738
G1 X118.353 Y107.639 E0.03349
G1 X118.898 Y106.246 E0.03897
G1 X119.706 Y104.792 E0.04335
G1 X120.748 Y103.348 E0.04640
G1 X121.980 Y101.980 E0.04796
G1 X123.348 Y100.748 E0.04796
G1 X124.792 Y99.706 E0.04640
G1 X126.246 Y98.898 E0.04335
G1 X127.639 Y98.353 E0.03897
G1 X128.896 Y98.086 E0.03349
G1 X129.947 Y98.085 E0.02738
G1 X130.746 Y98.304 E0.02158
G1 X131.308 Y98.692 E0.01780
G1 X131.696 Y99.254 E0.01780
G1 X131.915 Y100.053 E0.02158
G1 X131.914 Y101.104 E0.02738
G1 X131.647 Y102.361 E0.03349
G1 X131.102 Y103.754 E0.03897
G1 X130.294 Y105.208 E0.04335
G1 X129.252 Y106.652 E0.04640
G1 X128.020 Y108.020 E0.04796
G1 X126.652 Y109.252 E0.04796
G1 X125.208 Y110.294 E0.04640
G1 X123.754 Y111.102 E0.04335
G1 X122.361 Y111.647 E0.03897
G1 X121.104 Y111.914 E0.03349
G1 X120.053 Y111.915 E0.02738
G1 X119.254 Y111.696 E0.02158
G1 X118.741 Y111.342 E0.01624
M204 S1000
G1 X118.391 Y111.609 F7200.000
M204 S800
G1 F1031.780
G1 X117.920 Y110.924 E0.02165
G1 X117.667 Y110.003 E0.02489
G1 X117.668 Y108.852 E0.03000
G1 X117.951 Y107.518 E0.03552
G1 X118.519 Y106.067 E0.04060
G1 X119.353 Y104.567 E0.04473
G1 X120.423 Y103.085 E0.04763
G1 X121.684 Y101.684 E0.04912
G1 X123.085 Y100.423 E0.04912
G1 X124.567 Y99.353 E0.04763
G1 X126.067 Y98.519 E0.04473
G1 X127.518 Y97.951 E0.04060
G1 X128.852 Y97.668 E0.03552
G1 X130.003 Y97.667 E0.03000
G1 X130.924 Y97.920 E0.02489
G1 X131.609 Y98.391 E0.02165
G1 X132.080 Y99.076 E0.02165
G1 X132.333 Y99.997 E0.02489
G1 X132.332 Y101.148 E0.03000
G1 X132.049 Y102.482 E0.03552
G1 X131.481 Y103.933 E0.04060
G1 X130.647 Y105.433 E0.04473
G1 X129.577 Y106.915 E0.04763
G1 X128.316 Y108.316 E0.04912
G1 X126.915 Y109.577 E0.04912
G1 X125.433 Y110.647 E0.04763
G1 X123.933 Y111.481 E0.04473
G1 X122.482 Y112.049 E0.04060
G1 X121.148 Y112.332 E0.03552
G1 X119.997 Y112.333 E0.03000
G1 X119.076 Y112.080 E0.02489
G1 X118.441 Y111.643 E0.02008
M204 S1000
G1 X118.091 Y111.909 F7200.000
M204 S800
G1 F900.000
G1 X117.536 Y111.103 E0.02550
G1 X117.249 Y110.059 E0.02821
G1 X117.250 Y108.808 E0.03261
G1 X117.550 Y107.398 E0.03755
G1 X118.140 Y105.889 E0.04222
G1 X119.000 Y104.343 E0.04610
G1 X120.097 Y102.822 E0.04885
G1 X121.388 Y101.388 E0.05028
G1 X122.822 Y100.097 E0.05028
G1 X124.343 Y99.000 E0.04885
G1 X125.889 Y98.140 E0.04610
G1 X127.398 Y97.550 E0.04222
G1 X128.808 Y97.250 E0.03755
G1 X130.059 Y97.249 E0.03261
G1 X131.103 Y97.536 E0.02821
G1 X131.909 Y98.091 E0.02550
G1 X132.464 Y98.897 E0.02550
G1 X132.751 Y99.941 E0.02821
G1 X132.750 Y101.192 E0.03261
G1 X132.450 Y102.602 E0.03755
G1 X131.860 Y104.111 E0.04222
G1 X131.000 Y105.657 E0.04610
G1 X129.903 Y107.178 E0.04885
G1 X128.612 Y108.612 E0.05028
G1 X127.178 Y109.903 E0.05028
G1 X125.657 Y111.000 E0.04885
G1 X124.111 Y111.860 E0.04610
G1 X122.602 Y112.450 E0.04222
G1 X121.192 Y112.750 E0.03755
G1 X119.941 Y112.751 E0.03261
G1 X118.897 Y112.464 E0.02821
G1 X118.140 Y111.943 E0.02393
M204 S1000
G1 X118.195 Y111.523 F7200.000
G1 F5760
G1 X117.536 Y111.103 E-0.35840
G1 F5760
G1 X117.249 Y110.059 E-0.37494
G1 F5760
G1 X117.249 Y109.982 E-0.02666
G1 E-0.04000 F2100.00000
G1 X123.130 Y111.212 F7200.000
G1 E0.80000 F2100.00000
M204 S2000
G1 F1031.780
G1 X130.881 Y103.461 E0.29982
G1 X131.279 Y102.443 E0.02992
G1 X122.443 Y111.279 E0.34181
G1 X122.271 Y111.346 E0.00503
G1 X121.616 Y111.485 E0.01831
G1 X131.485 Y101.616 E0.38174
G1 X131.601 Y101.071 E0.01525
G1 X131.601 Y100.880 E0.00522
G1 X120.880 Y111.601 E0.41470
G1 X120.259 Y111.602 E0.01698
G1 X131.602 Y100.259 E0.43875
G1 X131.602 Y100.095 E0.00449
G1 X131.503 Y99.737 E0.01015
G1 X119.737 Y111.503 E0.45514
G1 X119.388 Y111.408 E0.00989
G1 X119.284 Y111.336 E0.00346
G1 X131.336 Y99.284 E0.46618
G1 X131.083 Y98.917 E0.01220
G1 X118.917 Y111.083 E0.47061
G1 X118.664 Y110.716 E0.01220
G1 X130.716 Y98.664 E0.46618
G1 X130.612 Y98.592 E0.00345
G1 X130.263 Y98.497 E0.00989
G1 X118.497 Y110.263 E0.45514
G1 X118.398 Y109.905 E0.01015
G1 X118.398 Y109.741 E0.00449
G1 X129.741 Y98.398 E0.43874
G1 X129.120 Y98.399 E0.01698
G1 X118.399 Y109.120 E0.41470
G1 X118.399 Y108.929 E0.00522
G1 X118.515 Y108.384 E0.01525
G1 X128.384 Y98.515 E0.38173
G1 X127.729 Y98.654 E0.01831
G1 X127.557 Y98.721 E0.00504
G1 X118.721 Y107.557 E0.34180
G1 X119.119 Y106.539 E0.02992
G1 X126.870 Y98.788 E0.29981
M204 S1000
G1 F5760
G1 X125.319 Y100.340 E-0.76000
G1 E-0.04000 F2100.00000
G1 X125.685 Y99.353 F7200.000
