; generated by Slic3r 1.33.8-prusa3d-win64 on 2017-04-22 at 10:51:09

; external perimeters extrusion width = 0.45mm
; perimeters extrusion width = 0.45mm
; infill extrusion width = 0.45mm
; solid infill extrusion width = 0.45mm
; top infill extrusion width = 0.45mm

M107
M115 U3.0.10 ; tell printer latest fw version
M83  ; extruder relative mode
M104 S215 ; set extruder temp
M140 S55 ; set bed temp
M190 S55 ; wait for bed temp
M109 S215 ; wait for extruder temp
G28 W ; home all without mesh bed level
G80 ; mesh bed leveling
G1 Y-3.0 F1000.0 ; go outside pritn area
G1 X60.0 E9.0  F1000.0 ; intro line
G1 X100.0 E12.5  F1000.0 ; intro line
G21 ; set units to millimeters
G90 ; use absolute coordinates
M83 ; use relative distances for extrusion
G1 E-0.80000 F2100.00000
G1 Z0.200 F7200.000
G1 X120.062 Y100.267 F7200.000
G1 E0.80000 F2100.00000
M204 S1000
G1 F920.469
G1 X120.375 Y99.966 E0.01363
G1 X121.155 Y99.341 E0.03134
G1 X121.470 Y99.147 E0.01160
G1 X122.333 Y98.700 E0.03047
G1 X122.684 Y98.570 E0.01175
G1 X123.636 Y98.296 E0.03105
G1 X123.983 Y98.242 E0.01102
G1 X124.947 Y98.159 E0.03033
G1 X125.326 Y98.174 E0.01189
G1 X126.315 Y98.286 E0.03119
G1 X126.656 Y98.370 E0.01102
G1 X127.591 Y98.668 E0.03076
G1 X127.918 Y98.820 E0.01131
G1 X128.784 Y99.300 E0.03105
G1 X129.064 Y99.505 E0.01088
G1 X129.797 Y100.122 E0.03004
G1 X130.055 Y100.400 E0.01189
G1 X130.677 Y101.182 E0.03134
G1 X130.859 Y101.483 E0.01102
G1 X131.311 Y102.359 E0.03091
G1 X131.433 Y102.693 E0.01117
G1 X131.707 Y103.650 E0.03119
G1 X131.759 Y103.993 E0.01088
G1 X131.841 Y104.966 E0.03062
G1 X131.826 Y105.331 E0.01146
G1 X131.713 Y106.319 E0.03119
G1 X131.629 Y106.660 E0.01102
G1 X131.330 Y107.595 E0.03076
G1 X131.180 Y107.918 E0.01117
G1 X130.703 Y108.780 E0.03090
G1 X130.498 Y109.060 E0.01088
G1 X129.888 Y109.787 E0.02975
G1 X129.604 Y110.052 E0.01218
G1 X128.822 Y110.675 E0.03134
G1 X128.517 Y110.859 E0.01117
G1 X127.646 Y111.309 E0.03076
G1 X127.307 Y111.433 E0.01131
G1 X126.350 Y111.707 E0.03119
G1 X126.007 Y111.759 E0.01088
G1 X125.034 Y111.841 E0.03062
G1 X124.669 Y111.826 E0.01146
G1 X123.681 Y111.713 E0.03119
G1 X123.340 Y111.629 E0.01102
G1 X122.405 Y111.330 E0.03076
G1 X122.082 Y111.180 E0.01117
G1 X121.220 Y110.703 E0.03090
G1 X120.940 Y110.498 E0.01088
G1 X120.213 Y109.888 E0.02975
G1 X119.948 Y109.604 E0.01218
G1 X119.328 Y108.826 E0.03119
G1 X119.143 Y108.521 E0.01117
G1 X118.694 Y107.654 E0.03062
G1 X118.568 Y107.311 E0.01146
G1 X118.296 Y106.364 E0.03091
G1 X118.242 Y106.021 E0.01088
G1 X118.159 Y105.071 E0.02989
G1 X118.173 Y104.683 E0.01218
G1 X118.283 Y103.699 E0.03105
G1 X118.366 Y103.357 E0.01102
G1 X118.652 Y102.448 E0.02989
G1 X118.809 Y102.103 E0.01189
G1 X119.275 Y101.255 E0.03033
G1 X119.476 Y100.972 E0.01088
G1 X120.021 Y100.312 E0.02686
G1 X120.352 Y100.508 F7200.000
G1 F920.469
G1 X120.627 Y100.247 E0.01192
G1 X121.378 Y99.645 E0.03016
G1 X121.654 Y99.477 E0.01014
G1 X122.493 Y99.042 E0.02961
G1 X122.800 Y98.929 E0.01028
G1 X123.720 Y98.663 E0.03002
G1 X124.031 Y98.616 E0.00986
G1 X124.964 Y98.536 E0.02934
G1 X125.296 Y98.549 E0.01041
G1 X126.247 Y98.657 E0.03002
G1 X126.552 Y98.732 E0.00986
G1 X127.456 Y99.020 E0.02975
G1 X127.745 Y99.156 E0.01000
G1 X128.579 Y99.617 E0.02989
G1 X128.826 Y99.798 E0.00959
G1 X129.542 Y100.400 E0.02934
G1 X129.767 Y100.644 E0.01041
G1 X130.367 Y101.396 E0.03016
G1 X130.530 Y101.666 E0.00986
G1 X130.967 Y102.513 E0.02989
G1 X131.074 Y102.809 E0.00986
G1 X131.338 Y103.729 E0.03002
G1 X131.385 Y104.036 E0.00973
G1 X131.464 Y104.977 E0.02961
G1 X131.450 Y105.300 E0.01014
G1 X131.342 Y106.251 E0.03002
G1 X131.268 Y106.552 E0.00973
G1 X130.980 Y107.456 E0.02975
G1 X130.844 Y107.745 E0.01000
G1 X130.386 Y108.576 E0.02975
G1 X130.202 Y108.826 E0.00973
G1 X129.609 Y109.533 E0.02893
G1 X129.359 Y109.765 E0.01069
G1 X128.607 Y110.365 E0.03016
G1 X128.338 Y110.528 E0.00986
G1 X127.491 Y110.965 E0.02989
G1 X127.191 Y111.074 E0.01000
G1 X126.271 Y111.338 E0.03002
G1 X125.964 Y111.385 E0.00973
G1 X125.028 Y111.464 E0.02948
G1 X124.705 Y111.451 E0.01014
G1 X123.749 Y111.342 E0.03016
G1 X123.448 Y111.268 E0.00973
G1 X122.544 Y110.980 E0.02975
G1 X122.255 Y110.844 E0.01000
G1 X121.424 Y110.386 E0.02975
G1 X121.174 Y110.202 E0.00973
G1 X120.467 Y109.609 E0.02893
G1 X120.235 Y109.359 E0.01069
G1 X119.635 Y108.607 E0.03016
G1 X119.472 Y108.338 E0.00986
G1 X119.038 Y107.499 E0.02961
G1 X118.927 Y107.196 E0.01014
G1 X118.663 Y106.280 E0.02989
G1 X118.616 Y105.973 E0.00973
G1 X118.536 Y105.054 E0.02893
G1 X118.549 Y104.713 E0.01069
G1 X118.654 Y103.766 E0.02989
G1 X118.728 Y103.460 E0.00986
G1 X119.007 Y102.576 E0.02907
G1 X119.147 Y102.270 E0.01055
G1 X119.595 Y101.454 E0.02920
G1 X119.776 Y101.201 E0.00973
G1 X120.312 Y100.553 E0.02637
G1 X120.644 Y100.748 F7200.000
G1 F920.469
G1 X120.877 Y100.529 E0.01002
G1 X121.601 Y99.950 E0.02908
G1 X121.843 Y99.803 E0.00887
G1 X122.652 Y99.384 E0.02857
G1 X122.917 Y99.287 E0.00887
G1 X123.801 Y99.032 E0.02882
G1 X124.072 Y98.991 E0.00861
G1 X124.976 Y98.913 E0.02844
G1 X125.262 Y98.925 E0.00899
G1 X126.180 Y99.028 E0.02895
G1 X126.446 Y99.094 E0.00861
G1 X127.318 Y99.371 E0.02869
G1 X127.571 Y99.490 E0.00874
G1 X128.375 Y99.934 E0.02882
G1 X128.593 Y100.095 E0.00848
G1 X129.284 Y100.675 E0.02831
G1 X129.481 Y100.890 E0.00912
G1 X130.057 Y101.611 E0.02895
G1 X130.199 Y101.847 E0.00861
G1 X130.619 Y102.659 E0.02869
G1 X130.714 Y102.921 E0.00874
G1 X130.969 Y103.805 E0.02882
G1 X131.009 Y104.072 E0.00848
G1 X131.087 Y104.984 E0.02869
G1 X131.075 Y105.266 E0.00887
G1 X130.972 Y106.180 E0.02882
G1 X130.906 Y106.446 E0.00861
G1 X130.629 Y107.318 E0.02869
G1 X130.512 Y107.567 E0.00861
G1 X130.068 Y108.372 E0.02882
G1 X129.908 Y108.590 E0.00848
G1 X129.333 Y109.275 E0.02805
G1 X129.113 Y109.478 E0.00938
G1 X128.392 Y110.055 E0.02895
G1 X128.157 Y110.197 E0.00861
G1 X127.345 Y110.618 E0.02869
G1 X127.083 Y110.713 E0.00874
G1 X126.195 Y110.969 E0.02895
G1 X125.928 Y111.009 E0.00848
G1 X125.020 Y111.087 E0.02857
G1 X124.738 Y111.075 E0.00887
G1 X123.820 Y110.972 E0.02895
G1 X123.554 Y110.906 E0.00861
G1 X122.682 Y110.629 E0.02869
G1 X122.433 Y110.512 E0.00861
G1 X121.628 Y110.068 E0.02882
G1 X121.410 Y109.908 E0.00848
G1 X120.725 Y109.333 E0.02805
G1 X120.522 Y109.113 E0.00938
G1 X119.947 Y108.395 E0.02882
G1 X119.803 Y108.157 E0.00874
G1 X119.384 Y107.348 E0.02857
G1 X119.287 Y107.083 E0.00887
G1 X119.032 Y106.199 E0.02882
G1 X118.991 Y105.932 E0.00848
G1 X118.913 Y105.041 E0.02805
G1 X118.924 Y104.746 E0.00925
G1 X119.026 Y103.832 E0.02882
G1 X119.092 Y103.562 E0.00874
G1 X119.361 Y102.708 E0.02805
G1 X119.484 Y102.440 E0.00925
G1 X119.918 Y101.649 E0.02831
G1 X120.079 Y101.426 E0.00861
G1 X120.603 Y100.792 E0.02579
G1 X120.937 Y100.987 F7200.000
G1 F920.469
G1 X121.128 Y100.812 E0.00812
G1 X121.820 Y100.257 E0.02783
G1 X122.807 Y99.728 E0.03510
G1 X123.881 Y99.400 E0.03522
G1 X124.988 Y99.290 E0.03486
G1 X126.109 Y99.398 E0.03534
G1 X127.181 Y99.722 E0.03510
G1 X128.169 Y100.249 E0.03510
G1 X129.029 Y100.953 E0.03486
G1 X129.745 Y101.823 E0.03534
G1 X130.274 Y102.810 E0.03510
G1 X130.600 Y103.885 E0.03522
G1 X130.710 Y104.991 E0.03486
G1 X130.602 Y106.109 E0.03522
G1 X130.279 Y107.177 E0.03498
G1 X129.751 Y108.169 E0.03522
G1 X129.055 Y109.021 E0.03451
G1 X128.870 Y109.191 E0.00788
G1 X128.177 Y109.745 E0.02783
G1 X127.190 Y110.274 E0.03510
G1 X126.119 Y110.600 E0.03510
G1 X125.009 Y110.710 E0.03498
G1 X123.891 Y110.602 E0.03522
G1 X122.823 Y110.279 E0.03498
G1 X121.835 Y109.753 E0.03510
G1 X120.979 Y109.055 E0.03462
G1 X120.809 Y108.870 E0.00788
G1 X120.257 Y108.180 E0.02771
G1 X119.729 Y107.197 E0.03498
G1 X119.401 Y106.122 E0.03522
G1 X119.290 Y105.024 E0.03462
G1 X119.300 Y104.773 E0.00788
G1 X119.398 Y103.894 E0.02771
G1 X119.715 Y102.837 E0.03462
G1 X119.819 Y102.612 E0.00776
G1 X120.239 Y101.847 E0.02735
G1 X120.896 Y101.031 E0.03287
G1 F5760
G1 X121.128 Y100.812 E-0.11041
G1 F5760
G1 X121.820 Y100.257 E-0.30742
G1 F5760
G1 X122.691 Y99.790 E-0.34217
G1 E-0.04000 F2100.00000
G1 X123.328 Y103.328 F7200.000
G1 E0.80000 F2100.00000
G1 F900.000
G1 X123.686 Y103.034 E0.01453
G1 X124.095 Y102.815 E0.01453
G1 X124.539 Y102.681 E0.01453
G1 X125.000 Y102.635 E0.01453
G1 X125.405 Y102.675 E0.01276
G1 X125.912 Y102.820 E0.01655
G1 X126.314 Y103.034 E0.01426
G1 X126.672 Y103.328 E0.01453
G1 X126.966 Y103.686 E0.01453
G1 X127.185 Y104.095 E0.01453
G1 X127.319 Y104.539 E0.01453
G1 X127.365 Y105.000 E0.01453
G1 X127.319 Y105.461 E0.01453
G1 X127.185 Y105.905 E0.01453
G1 X126.966 Y106.314 E0.01453
G1 X126.672 Y106.672 E0.01453
G1 X126.314 Y106.966 E0.01453
G1 X125.905 Y107.185 E0.01453
G1 X125.461 Y107.319 E0.01453
G1 X125.000 Y107.365 E0.01453
G1 X124.539 Y107.319 E0.01453
G1 X124.095 Y107.185 E0.01453
G1 X123.686 Y106.966 E0.01453
G1 X123.328 Y106.672 E0.01453
G1 X123.034 Y106.314 E0.01453
G1 X122.815 Y105.905 E0.01453
G1 X122.681 Y105.461 E0.01453
G1 X122.635 Y105.000 E0.01453
G1 X122.681 Y104.539 E0.01453
G1 X122.815 Y104.095 E0.01453
G1 X123.034 Y103.686 E0.01453
G1 X123.290 Y103.374 E0.01265
G1 X123.060 Y103.060 F7200.000
G1 F900.000
G1 X123.476 Y102.719 E0.01686
G1 X123.950 Y102.465 E0.01686
G1 X124.465 Y102.309 E0.01686
G1 X125.000 Y102.257 E0.01686
G1 X125.475 Y102.303 E0.01498
G1 X126.055 Y102.468 E0.01887
G1 X126.524 Y102.719 E0.01670
G1 X126.940 Y103.060 E0.01686
G1 X127.281 Y103.476 E0.01686
G1 X127.535 Y103.950 E0.01686
G1 X127.691 Y104.465 E0.01686
G1 X127.743 Y105.000 E0.01686
G1 X127.691 Y105.535 E0.01686
G1 X127.535 Y106.050 E0.01686
G1 X127.281 Y106.524 E0.01686
G1 X126.940 Y106.940 E0.01686
G1 X126.524 Y107.281 E0.01686
G1 X126.050 Y107.535 E0.01686
G1 X125.535 Y107.691 E0.01686
G1 X125.000 Y107.743 E0.01686
G1 X124.465 Y107.691 E0.01686
G1 X123.950 Y107.535 E0.01686
G1 X123.476 Y107.281 E0.01686
G1 X123.060 Y106.940 E0.01686
G1 X122.719 Y106.524 E0.01686
G1 X122.465 Y106.050 E0.01686
G1 X122.309 Y105.535 E0.01686
G1 X122.257 Y105.000 E0.01686
G1 X122.309 Y104.465 E0.01686
G1 X122.465 Y103.950 E0.01686
G1 X122.719 Y103.476 E0.01686
G1 X123.022 Y103.106 E0.01498
G1 X122.792 Y102.792 F7200.000
G1 F900.000
G1 X123.265 Y102.404 E0.01919
G1 X123.805 Y102.115 E0.01919
G1 X124.391 Y101.938 E0.01919
G1 X125.000 Y101.878 E0.01919
G1 X125.546 Y101.931 E0.01720
G1 X126.197 Y102.116 E0.02120
G1 X126.735 Y102.404 E0.01913
G1 X127.208 Y102.792 E0.01919
G1 X127.596 Y103.265 E0.01919
G1 X127.885 Y103.805 E0.01919
G1 X128.062 Y104.391 E0.01919
G1 X128.122 Y105.000 E0.01919
G1 X128.062 Y105.609 E0.01919
G1 X127.885 Y106.195 E0.01919
G1 X127.596 Y106.735 E0.01919
G1 X127.208 Y107.208 E0.01919
G1 X126.735 Y107.596 E0.01919
G1 X126.195 Y107.885 E0.01919
G1 X125.609 Y108.062 E0.01919
G1 X125.000 Y108.122 E0.01919
G1 X124.391 Y108.062 E0.01919
G1 X123.805 Y107.885 E0.01919
G1 X123.265 Y107.596 E0.01919
G1 X122.792 Y107.208 E0.01919
G1 X122.404 Y106.735 E0.01919
G1 X122.115 Y106.195 E0.01919
G1 X121.938 Y105.609 E0.01919
G1 X121.878 Y105.000 E0.01919
G1 X121.938 Y104.391 E0.01919
G1 X122.115 Y103.805 E0.01919
G1 X122.404 Y103.265 E0.01919
G1 X122.754 Y102.839 E0.01731
G1 X123.179 Y102.896 F7200.000
G1 F5760
G1 X123.265 Y102.404 E-0.23241
G1 F5760
G1 X123.805 Y102.115 E-0.21200
G1 F5760
G1 X124.391 Y101.938 E-0.21200
G1 F5760
G1 X124.689 Y101.908 E-0.10359
G1 E-0.04000 F2100.00000
G1 X124.826 Y107.234 F7200.000
G1 E0.80000 F2100.00000
G1 F900.000
G1 X122.955 Y105.363 E0.08322
G1 X122.920 Y105.000 E0.01147
G1 X122.938 Y104.811 E0.00598
G1 X125.189 Y107.062 E0.10013
G1 X125.406 Y107.040 E0.00685
G1 X125.634 Y106.971 E0.00749
G1 X123.029 Y104.366 E0.11588
G1 X123.078 Y104.204 E0.00534
G1 X123.191 Y103.993 E0.00752
G1 X126.007 Y106.809 E0.12528
G1 X126.156 Y106.730 E0.00531
G1 X126.324 Y106.592 E0.00685
G1 X123.408 Y103.676 E0.12971
G1 X123.529 Y103.529 E0.00598
G1 X123.676 Y103.408 E0.00598
G1 X126.592 Y106.324 E0.12971
G1 X126.730 Y106.156 E0.00685
G1 X126.809 Y106.007 E0.00531
G1 X123.993 Y103.191 E0.12528
G1 X124.204 Y103.078 E0.00752
G1 X124.366 Y103.029 E0.00534
G1 X126.971 Y105.634 E0.11589
G1 X127.040 Y105.406 E0.00749
G1 X127.062 Y105.189 E0.00685
G1 X124.811 Y102.938 E0.10014
G1 X125.000 Y102.920 E0.00598
G1 X125.366 Y102.958 E0.01156
G1 X127.234 Y104.826 E0.08310
M106 S255
M104 S205 ; set temperature
G1 F5760
G1 X125.682 Y103.275 E-0.76000
G1 E-0.04000 F2100.00000
G1 Z0.350 F7200.000
G1 X127.268 Y105.000 F7200.000
G1 E0.80000 F2100.00000
M204 S800
G1 F900.000
G1 X127.224 Y105.442 E0.01158
G1 X127.095 Y105.868 E0.01158
G1 X126.885 Y106.260 E0.01158
G1 X126.603 Y106.603 E0.01158
G1 X126.260 Y106.885 E0.01158
G1 X125.868 Y107.095 E0.01158
G1 X125.442 Y107.224 E0.01158
G1 X125.000 Y107.268 E0.01158
G1 X124.558 Y107.224 E0.01158
G1 X124.132 Y107.095 E0.01158
G1 X123.740 Y106.885 E0.01158
G1 X123.397 Y106.603 E0.01158
G1 X123.115 Y106.260 E0.01158
G1 X122.905 Y105.868 E0.01158
G1 X122.776 Y105.442 E0.01158
G1 X122.732 Y105.000 E0.01158
G1 X122.776 Y104.558 E0.01158
G1 X122.905 Y104.132 E0.01158
G1 X123.115 Y103.740 E0.01158
G1 X123.397 Y103.397 E0.01158
G1 X123.740 Y103.115 E0.01158
G1 X124.132 Y102.905 E0.01158
G1 X124.558 Y102.776 E0.01158
G1 X125.000 Y102.732 E0.01158
G1 X125.442 Y102.776 E0.01158
G1 X125.868 Y102.905 E0.01158
G1 X126.260 Y103.115 E0.01158
G1 X126.603 Y103.397 E0.01158
G1 X126.885 Y103.740 E0.01158
G1 X127.095 Y104.132 E0.01158
G1 X127.224 Y104.558 E0.01158
G1 X127.262 Y104.940 E0.01002
M204 S1000
G1 X127.687 Y105.000 F7200.000
M204 S800
G1 F900.000
G1 X127.636 Y105.524 E0.01373
G1 X127.483 Y106.028 E0.01373
G1 X127.235 Y106.493 E0.01373
G1 X126.900 Y106.900 E0.01373
G1 X126.493 Y107.235 E0.01373
G1 X126.028 Y107.483 E0.01373
G1 X125.524 Y107.636 E0.01373
G1 X125.000 Y107.687 E0.01373
G1 X124.476 Y107.636 E0.01373
G1 X123.972 Y107.483 E0.01373
G1 X123.507 Y107.235 E0.01373
G1 X123.100 Y106.900 E0.01373
G1 X122.765 Y106.493 E0.01373
G1 X122.517 Y106.028 E0.01373
G1 X122.364 Y105.524 E0.01373
G1 X122.313 Y105.000 E0.01373
G1 X122.364 Y104.476 E0.01373
G1 X122.517 Y103.972 E0.01373
G1 X122.765 Y103.507 E0.01373
G1 X123.100 Y103.100 E0.01373
G1 X123.507 Y102.765 E0.01373
G1 X123.972 Y102.517 E0.01373
G1 X124.476 Y102.364 E0.01373
G1 X125.000 Y102.313 E0.01373
G1 X125.524 Y102.364 E0.01373
G1 X126.028 Y102.517 E0.01373
G1 X126.493 Y102.765 E0.01373
G1 X126.900 Y103.100 E0.01373
G1 X127.235 Y103.507 E0.01373
G1 X127.483 Y103.972 E0.01373
G1 X127.636 Y104.476 E0.01373
G1 X127.682 Y104.940 E0.01216
M204 S1000
G1 X128.107 Y105.000 F7200.000
M204 S800
G1 F900.000
G1 X128.048 Y105.606 E0.01587
G1 X127.871 Y106.189 E0.01587
G1 X127.584 Y106.726 E0.01587
G1 X127.197 Y107.197 E0.01587
G1 X126.726 Y107.584 E0.01587
G1 X126.189 Y107.871 E0.01587
G1 X125.606 Y108.048 E0.01587
G1 X125.000 Y108.107 E0.01587
G1 X124.394 Y108.048 E0.01587
G1 X123.811 Y107.871 E0.01587
G1 X123.274 Y107.584 E0.01587
G1 X122.803 Y107.197 E0.01587
G1 X122.416 Y106.726 E0.01587
G1 X122.129 Y106.189 E0.01587
G1 X121.952 Y105.606 E0.01587
G1 X121.893 Y105.000 E0.01587
G1 X121.952 Y104.394 E0.01587
G1 X122.129 Y103.811 E0.01587
G1 X122.416 Y103.274 E0.01587
G1 X122.803 Y102.803 E0.01587
G1 X123.274 Y102.416 E0.01587
G1 X123.811 Y102.129 E0.01587
G1 X124.394 Y101.952 E0.01587
G1 X125.000 Y101.893 E0.01587
G1 X125.606 Y101.952 E0.01587
G1 X126.189 Y102.129 E0.01587
G1 X126.726 Y102.416 E0.01587
G1 X127.197 Y102.803 E0.01587
G1 X127.584 Y103.274 E0.01587
G1 X127.871 Y103.811 E0.01587
G1 X128.048 Y104.394 E0.01587
G1 X128.101 Y104.940 E0.01431
M204 S1000
G1 X127.761 Y105.200 F7200.000
G1 F5760
G1 X128.048 Y105.606 E-0.23139
G1 F5760
G1 X127.871 Y106.189 E-0.21097
