; generated by Slic3r 1.33.8-prusa3d-win64 on 2017-04-22 at 10:53:49

; external perimeters extrusion width = 0.45mm
; perimeters extrusion width = 0.45mm
; infill extrusion width = 0.45mm
; solid infill extrusion width = 0.45mm
; top infill extrusion width = 0.45mm

M107
M115 U3.0.10 ; tell printer latest fw version
M83  ; extruder relative mode
M104 S215 ; set extruder temp
M140 S55 ; set bed temp
M190 S55 ; wait for bed temp
M109 S215 ; wait for extruder temp
G28 W ; home all without mesh bed level
G80 ; mesh bed leveling
G1 Y-3.0 F1000.0 ; go outside pritn area
G1 X60.0 E9.0  F1000.0 ; intro line
G1 X100.0 E12.5  F1000.0 ; intro line
G21 ; set units to millimeters
G90 ; use absolute coordinates
M83 ; use relative distances for extrusion
G1 E-0.80000 F2100.00000
G1 Z0.200 F7200.000
G1 X118.149 Y97.997 F7200.000
G1 E0.80000 F2100.00000
M204 S1000
G1 F1996.635
G1 X119.323 Y97.025 E0.04778
G1 X119.574 Y96.842 E0.00973
G1 X120.980 Y96.075 E0.05024
G1 X121.269 Y95.940 E0.01000
G1 X122.795 Y95.464 E0.05010
G1 X123.096 Y95.389 E0.00973
G1 X124.697 Y95.217 E0.05051
G1 X125.020 Y95.202 E0.01014
G1 X126.612 Y95.346 E0.05010
G1 X126.914 Y95.391 E0.00959
G1 X128.460 Y95.844 E0.05051
G1 X128.756 Y95.951 E0.00986
G1 X130.180 Y96.695 E0.05037
G1 X130.446 Y96.855 E0.00973
G1 X131.704 Y97.868 E0.05065
G1 X131.943 Y98.086 E0.01014
G1 X132.966 Y99.313 E0.05010
G1 X133.148 Y99.559 E0.00959
G1 X133.921 Y100.973 E0.05051
G1 X134.053 Y101.253 E0.00973
G1 X134.535 Y102.790 E0.05051
G1 X134.610 Y103.091 E0.00973
G1 X134.783 Y104.693 E0.05051
G1 X134.798 Y105.007 E0.00986
G1 X134.655 Y106.608 E0.05037
G1 X134.609 Y106.914 E0.00973
G1 X134.156 Y108.460 E0.05051
G1 X134.051 Y108.752 E0.00973
G1 X133.305 Y110.180 E0.05051
G1 X133.145 Y110.446 E0.00973
G1 X132.132 Y111.704 E0.05065
G1 X131.914 Y111.943 E0.01014
G1 X130.687 Y112.966 E0.05010
G1 X130.441 Y113.148 E0.00959
G1 X129.027 Y113.921 E0.05051
G1 X128.747 Y114.053 E0.00973
G1 X127.210 Y114.535 E0.05051
G1 X126.913 Y114.609 E0.00959
G1 X125.307 Y114.783 E0.05065
G1 X124.997 Y114.798 E0.00973
G1 X123.392 Y114.655 E0.05051
G1 X123.086 Y114.609 E0.00973
G1 X121.540 Y114.156 E0.05051
G1 X121.248 Y114.051 E0.00973
G1 X119.820 Y113.305 E0.05051
G1 X119.554 Y113.145 E0.00973
G1 X118.300 Y112.135 E0.05051
G1 X118.064 Y111.920 E0.01000
G1 X117.034 Y110.687 E0.05037
G1 X116.852 Y110.441 E0.00959
G1 X116.079 Y109.027 E0.05051
G1 X115.947 Y108.747 E0.00973
G1 X115.465 Y107.210 E0.05051
G1 X115.390 Y106.909 E0.00973
G1 X115.217 Y105.307 E0.05051
G1 X115.202 Y104.993 E0.00986
G1 X115.345 Y103.392 E0.05037
G1 X115.391 Y103.086 E0.00973
G1 X115.844 Y101.540 E0.05051
G1 X115.951 Y101.244 E0.00986
G1 X116.695 Y99.820 E0.05037
G1 X116.857 Y99.550 E0.00986
G1 X117.871 Y98.293 E0.05065
G1 X118.106 Y98.038 E0.01086
G1 X118.392 Y98.287 F7200.000
G1 F1996.635
G1 X119.559 Y97.320 E0.04752
G1 X119.776 Y97.160 E0.00848
G1 X121.154 Y96.410 E0.04918
G1 X121.406 Y96.292 E0.00874
G1 X122.900 Y95.826 E0.04905
G1 X123.166 Y95.759 E0.00861
G1 X124.734 Y95.592 E0.04944
G1 X125.013 Y95.579 E0.00874
G1 X126.571 Y95.721 E0.04905
G1 X126.842 Y95.761 E0.00861
G1 X128.351 Y96.205 E0.04931
G1 X128.609 Y96.298 E0.00861
G1 X130.002 Y97.028 E0.04931
G1 X130.234 Y97.167 E0.00848
G1 X131.461 Y98.157 E0.04944
G1 X131.670 Y98.347 E0.00887
G1 X132.672 Y99.549 E0.04905
G1 X132.833 Y99.766 E0.00848
G1 X133.588 Y101.150 E0.04944
G1 X133.705 Y101.399 E0.00861
G1 X134.174 Y102.900 E0.04931
G1 X134.240 Y103.162 E0.00848
G1 X134.408 Y104.730 E0.04944
G1 X134.421 Y105.004 E0.00861
G1 X134.279 Y106.571 E0.04931
G1 X134.240 Y106.838 E0.00848
G1 X133.795 Y108.351 E0.04944
G1 X133.704 Y108.605 E0.00848
G1 X132.972 Y110.002 E0.04944
G1 X132.833 Y110.234 E0.00848
G1 X131.843 Y111.461 E0.04944
G1 X131.653 Y111.670 E0.00887
G1 X130.451 Y112.672 E0.04905
G1 X130.234 Y112.833 E0.00848
G1 X128.850 Y113.588 E0.04944
G1 X128.605 Y113.704 E0.00848
G1 X127.100 Y114.174 E0.04944
G1 X126.838 Y114.240 E0.00848
G1 X125.270 Y114.408 E0.04944
G1 X125.000 Y114.421 E0.00848
G1 X123.429 Y114.279 E0.04944
G1 X123.162 Y114.240 E0.00848
G1 X121.649 Y113.795 E0.04944
G1 X121.395 Y113.704 E0.00848
G1 X119.998 Y112.972 E0.04944
G1 X119.766 Y112.833 E0.00848
G1 X118.539 Y111.843 E0.04944
G1 X118.335 Y111.658 E0.00861
G1 X117.328 Y110.451 E0.04931
G1 X117.167 Y110.234 E0.00848
G1 X116.412 Y108.850 E0.04944
G1 X116.296 Y108.605 E0.00848
G1 X115.826 Y107.100 E0.04944
G1 X115.760 Y106.838 E0.00848
G1 X115.592 Y105.270 E0.04944
G1 X115.579 Y104.996 E0.00861
G1 X115.721 Y103.429 E0.04931
G1 X115.760 Y103.162 E0.00848
G1 X116.205 Y101.649 E0.04944
G1 X116.298 Y101.391 E0.00861
G1 X117.028 Y99.998 E0.04931
G1 X117.169 Y99.762 E0.00861
G1 X118.157 Y98.539 E0.04931
G1 X118.348 Y98.329 E0.00891
G1 X118.632 Y98.579 F7200.000
G1 F1996.635
G1 X119.981 Y97.477 E0.05464
G1 X121.545 Y96.642 E0.05559
G1 X123.238 Y96.129 E0.05547
G1 X125.007 Y95.956 E0.05571
G1 X126.763 Y96.130 E0.05535
G1 X128.463 Y96.646 E0.05571
G1 X130.024 Y97.480 E0.05547
G1 X131.400 Y98.610 E0.05583
G1 X132.519 Y99.975 E0.05535
G1 X133.355 Y101.538 E0.05559
G1 X133.870 Y103.235 E0.05559
G1 X134.044 Y105.003 E0.05571
G1 X133.869 Y106.767 E0.05559
G1 X133.354 Y108.463 E0.05559
G1 X132.518 Y110.027 E0.05559
G1 X131.390 Y111.400 E0.05571
G1 X130.025 Y112.519 E0.05535
G1 X128.462 Y113.355 E0.05559
G1 X126.765 Y113.870 E0.05559
G1 X125.001 Y114.044 E0.05559
G1 X123.237 Y113.870 E0.05559
G1 X121.540 Y113.356 E0.05559
G1 X119.976 Y112.520 E0.05559
G1 X118.606 Y111.396 E0.05559
G1 X117.481 Y110.025 E0.05559
G1 X116.645 Y108.462 E0.05559
G1 X116.130 Y106.765 E0.05559
G1 X115.956 Y105.005 E0.05547
G1 X116.130 Y103.237 E0.05571
G1 X116.643 Y101.544 E0.05547
G1 X117.478 Y99.980 E0.05559
G1 X118.589 Y98.621 E0.05502
G1 F5760
G1 X119.981 Y97.477 E-0.62422
G1 F5760
G1 X120.327 Y97.292 E-0.13578
G1 E-0.04000 F2100.00000
G1 X120.971 Y100.971 F7200.000
G1 E0.80000 F2100.00000
G1 F900.000
G1 X121.834 Y100.262 E0.03502
G1 X122.820 Y99.736 E0.03502
G1 X123.888 Y99.412 E0.03502
G1 X125.000 Y99.302 E0.03502
G1 X126.112 Y99.412 E0.03502
G1 X127.180 Y99.736 E0.03502
G1 X128.166 Y100.262 E0.03502
G1 X129.029 Y100.971 E0.03502
G1 X129.738 Y101.834 E0.03502
G1 X130.264 Y102.820 E0.03502
G1 X130.588 Y103.888 E0.03502
G1 X130.698 Y105.000 E0.03502
G1 X130.588 Y106.112 E0.03502
G1 X130.264 Y107.180 E0.03502
G1 X129.738 Y108.166 E0.03502
G1 X129.029 Y109.029 E0.03502
G1 X128.166 Y109.738 E0.03502
G1 X127.180 Y110.264 E0.03502
G1 X126.112 Y110.588 E0.03502
G1 X125.000 Y110.698 E0.03502
G1 X123.888 Y110.588 E0.03502
G1 X122.820 Y110.264 E0.03502
G1 X121.834 Y109.738 E0.03502
G1 X120.971 Y109.029 E0.03502
G1 X120.262 Y108.166 E0.03502
G1 X119.736 Y107.180 E0.03502
G1 X119.412 Y106.112 E0.03502
G1 X119.302 Y105.000 E0.03502
G1 X119.412 Y103.888 E0.03502
G1 X119.736 Y102.820 E0.03502
G1 X120.262 Y101.834 E0.03502
G1 X120.933 Y101.017 E0.03314
G1 X120.703 Y100.703 F7200.000
G1 F900.000
G1 X121.624 Y99.947 E0.03735
G1 X122.675 Y99.386 E0.03735
G1 X123.814 Y99.040 E0.03735
G1 X125.000 Y98.923 E0.03735
G1 X126.186 Y99.040 E0.03735
G1 X127.325 Y99.386 E0.03735
G1 X128.376 Y99.947 E0.03735
G1 X129.297 Y100.703 E0.03735
G1 X130.053 Y101.624 E0.03735
G1 X130.614 Y102.675 E0.03735
G1 X130.960 Y103.814 E0.03735
G1 X131.077 Y105.000 E0.03735
G1 X130.960 Y106.186 E0.03735
G1 X130.614 Y107.325 E0.03735
G1 X130.053 Y108.376 E0.03735
G1 X129.297 Y109.297 E0.03735
G1 X128.376 Y110.053 E0.03735
G1 X127.325 Y110.614 E0.03735
G1 X126.186 Y110.960 E0.03735
G1 X125.000 Y111.077 E0.03735
G1 X123.814 Y110.960 E0.03735
G1 X122.675 Y110.614 E0.03735
G1 X121.624 Y110.053 E0.03735
G1 X120.703 Y109.297 E0.03735
G1 X119.947 Y108.376 E0.03735
G1 X119.386 Y107.325 E0.03735
G1 X119.040 Y106.186 E0.03735
G1 X118.923 Y105.000 E0.03735
G1 X119.040 Y103.814 E0.03735
G1 X119.386 Y102.675 E0.03735
G1 X119.947 Y101.624 E0.03735
G1 X120.665 Y100.749 E0.03547
G1 X120.435 Y100.435 F7200.000
G1 F900.000
G1 X121.413 Y99.632 E0.03968
G1 X122.530 Y99.036 E0.03968
G1 X123.741 Y98.668 E0.03968
G1 X125.000 Y98.544 E0.03968
G1 X126.259 Y98.668 E0.03968
G1 X127.470 Y99.036 E0.03968
G1 X128.587 Y99.632 E0.03968
G1 X129.565 Y100.435 E0.03968
G1 X130.368 Y101.413 E0.03968
G1 X130.964 Y102.530 E0.03968
G1 X131.332 Y103.741 E0.03968
G1 X131.456 Y105.000 E0.03968
G1 X131.332 Y106.259 E0.03968
G1 X130.964 Y107.470 E0.03968
G1 X130.368 Y108.587 E0.03968
G1 X129.565 Y109.565 E0.03968
G1 X128.587 Y110.368 E0.03968
G1 X127.470 Y110.964 E0.03968
G1 X126.259 Y111.332 E0.03968
G1 X125.000 Y111.456 E0.03968
G1 X123.741 Y111.332 E0.03968
G1 X122.530 Y110.964 E0.03968
G1 X121.413 Y110.368 E0.03968
G1 X120.435 Y109.565 E0.03968
G1 X119.632 Y108.587 E0.03968
G1 X119.036 Y107.470 E0.03968
G1 X118.668 Y106.259 E0.03968
G1 X118.544 Y105.000 E0.03968
G1 X118.668 Y103.741 E0.03968
G1 X119.036 Y102.530 E0.03968
G1 X119.632 Y101.413 E0.03968
G1 X120.397 Y100.482 E0.03780
G1 X120.822 Y100.539 F7200.000
G1 F5760
G1 X121.413 Y99.632 E-0.45872
G1 F5760
G1 X122.181 Y99.222 E-0.30128
G1 E-0.04000 F2100.00000
G1 X119.757 Y106.862 F7200.000
G1 E0.80000 F2100.00000
G1 F1597.308
G1 X122.862 Y109.966 E0.14106
G1 X122.928 Y110.002 E0.00243
G1 X123.668 Y110.226 E0.02484
G1 X119.774 Y106.332 E0.17695
G1 X119.690 Y106.056 E0.00926
G1 X119.652 Y105.663 E0.01269
G1 X124.337 Y110.348 E0.21291
G1 X124.943 Y110.408 E0.01957
G1 X119.592 Y105.057 E0.24316
G1 X119.631 Y104.549 E0.01636
G1 X125.451 Y110.369 E0.26447
G1 X125.948 Y110.320 E0.01606
G1 X119.680 Y104.052 E0.28485
G1 X119.690 Y103.944 E0.00348
G1 X119.790 Y103.615 E0.01103
G1 X126.385 Y110.210 E0.29966
G1 X126.804 Y110.083 E0.01408
G1 X119.917 Y103.196 E0.31294
G1 X119.998 Y102.928 E0.00899
G1 X120.067 Y102.800 E0.00469
G1 X127.200 Y109.933 E0.32414
G1 X127.556 Y109.742 E0.01297
G1 X120.258 Y102.444 E0.33167
G1 X120.448 Y102.087 E0.01297
G1 X127.913 Y109.552 E0.33920
G1 X128.008 Y109.501 E0.00346
G1 X128.228 Y109.321 E0.00915
G1 X120.679 Y101.772 E0.34300
G1 X120.926 Y101.472 E0.01248
G1 X128.528 Y109.074 E0.34545
G1 X128.828 Y108.828 E0.01248
G1 X121.172 Y101.172 E0.34790
G1 X121.472 Y100.926 E0.01248
G1 X129.074 Y108.528 E0.34545
G1 X129.321 Y108.228 E0.01248
G1 X121.772 Y100.679 E0.34301
G1 X121.992 Y100.499 E0.00915
G1 X122.087 Y100.448 E0.00346
G1 X129.552 Y107.913 E0.33920
G1 X129.742 Y107.557 E0.01297
G1 X122.443 Y100.258 E0.33167
G1 X122.800 Y100.067 E0.01297
G1 X129.933 Y107.200 E0.32414
G1 X130.002 Y107.072 E0.00469
G1 X130.083 Y106.804 E0.00899
G1 X123.196 Y99.917 E0.31294
G1 X123.615 Y99.790 E0.01408
G1 X130.210 Y106.385 E0.29967
G1 X130.310 Y106.056 E0.01103
G1 X130.320 Y105.948 E0.00348
G1 X124.052 Y99.680 E0.28485
G1 X124.549 Y99.631 E0.01606
G1 X130.369 Y105.451 E0.26447
G1 X130.408 Y104.943 E0.01636
G1 X125.057 Y99.592 E0.24317
G1 X125.663 Y99.652 E0.01957
G1 X130.348 Y104.337 E0.21291
G1 X130.310 Y103.944 E0.01270
G1 X130.226 Y103.668 E0.00925
G1 X126.339 Y99.781 E0.17664
G1 X127.072 Y99.999 E0.02459
G1 X127.138 Y100.034 E0.00239
G1 X130.243 Y103.138 E0.14107
G1 F5760
G1 X128.691 Y101.587 E-0.76000
G1 E-0.04000 F2100.00000
G1 X129.752 Y102.101 F7200.000
G1 E0.80000 F2100.00000
G1 F1597.308
G1 X127.899 Y100.248 E0.08421
G1 F5760
G1 X129.450 Y101.800 E-0.76000
G1 E-0.04000 F2100.00000
G1 X120.248 Y107.899 F7200.000
G1 E0.80000 F2100.00000
G1 F1597.308
G1 X122.101 Y109.752 E0.08419
M106 S255
M104 S205 ; set temperature
G1 F5760
G1 X120.549 Y108.200 E-0.76000
G1 E-0.04000 F2100.00000
G1 Z0.350 F7200.000
G1 X121.888 Y109.657 F7200.000
G1 E0.80000 F2100.00000
M204 S800
G1 F900.000
G1 X121.040 Y108.960 E0.02861
G1 X120.343 Y108.112 E0.02861
G1 X119.825 Y107.143 E0.02861
G1 X119.507 Y106.093 E0.02861
G1 X119.399 Y105.000 E0.02861
G1 X119.507 Y103.907 E0.02861
G1 X119.825 Y102.857 E0.02861
G1 X120.343 Y101.888 E0.02861
G1 X121.040 Y101.040 E0.02861
G1 X121.888 Y100.343 E0.02861
G1 X122.857 Y99.825 E0.02861
G1 X123.907 Y99.507 E0.02861
G1 X125.000 Y99.399 E0.02861
G1 X126.093 Y99.507 E0.02861
G1 X127.143 Y99.825 E0.02861
G1 X128.112 Y100.343 E0.02861
G1 X128.960 Y101.040 E0.02861
G1 X129.657 Y101.888 E0.02861
G1 X130.175 Y102.857 E0.02861
G1 X130.493 Y103.907 E0.02861
G1 X130.601 Y105.000 E0.02861
G1 X130.493 Y106.093 E0.02861
G1 X130.175 Y107.143 E0.02861
G1 X129.657 Y108.112 E0.02861
G1 X128.960 Y108.960 E0.02861
G1 X128.112 Y109.657 E0.02861
G1 X127.143 Y110.175 E0.02861
G1 X126.093 Y110.493 E0.02861
G1 X125.000 Y110.601 E0.02861
G1 X123.907 Y110.493 E0.02861
G1 X122.857 Y110.175 E0.02861
G1 X121.941 Y109.685 E0.02705
M204 S1000
G1 X121.655 Y110.006 F7200.000
M204 S800
G1 F900.000
G1 X120.743 Y109.257 E0.03075
G1 X119.994 Y108.345 E0.03075
G1 X119.438 Y107.304 E0.03075
G1 X119.095 Y106.175 E0.03075
G1 X118.979 Y105.000 E0.03075
G1 X119.095 Y103.825 E0.03075
G1 X119.438 Y102.696 E0.03075
G1 X119.994 Y101.655 E0.03075
G1 X120.743 Y100.743 E0.03075
G1 X121.655 Y99.994 E0.03075
G1 X122.696 Y99.438 E0.03075
G1 X123.825 Y99.095 E0.03075
G1 X125.000 Y98.979 E0.03075
G1 X126.175 Y99.095 E0.03075
G1 X127.304 Y99.438 E0.03075
G1 X128.345 Y99.994 E0.03075
G1 X129.257 Y100.743 E0.03075
G1 X130.006 Y101.655 E0.03075
G1 X130.562 Y102.696 E0.03075
G1 X130.905 Y103.825 E0.03075
G1 X131.021 Y105.000 E0.03075
G1 X130.905 Y106.175 E0.03075
G1 X130.562 Y107.304 E0.03075
G1 X130.006 Y108.345 E0.03075
G1 X129.257 Y109.257 E0.03075
G1 X128.345 Y110.006 E0.03075
G1 X127.304 Y110.562 E0.03075
G1 X126.175 Y110.905 E0.03075
G1 X125.000 Y111.021 E0.03075
G1 X123.825 Y110.905 E0.03075
G1 X122.696 Y110.562 E0.03075
G1 X121.708 Y110.034 E0.02919
M204 S1000
G1 X121.422 Y110.355 F7200.000
M204 S800
G1 F900.000
G1 X120.446 Y109.554 E0.03290
G1 X119.645 Y108.578 E0.03290
G1 X119.050 Y107.465 E0.03290
G1 X118.683 Y106.257 E0.03290
G1 X118.559 Y105.000 E0.03290
G1 X118.683 Y103.744 E0.03290
G1 X119.050 Y102.535 E0.03290
G1 X119.645 Y101.422 E0.03290
G1 X120.446 Y100.446 E0.03290
G1 X121.422 Y99.645 E0.03290
G1 X122.535 Y99.050 E0.03290
G1 X123.744 Y98.683 E0.03290
G1 X125.000 Y98.559 E0.03290
G1 X126.256 Y98.683 E0.03290
G1 X127.465 Y99.050 E0.03290
G1 X128.578 Y99.645 E0.03290
G1 X129.554 Y100.446 E0.03290
G1 X130.355 Y101.422 E0.03290
G1 X130.950 Y102.535 E0.03290
G1 X131.317 Y103.744 E0.03290
G1 X131.441 Y105.000 E0.03290
G1 X131.317 Y106.256 E0.03290
G1 X130.950 Y107.465 E0.03290
G1 X130.355 Y108.578 E0.03290
G1 X129.554 Y109.554 E0.03290
G1 X128.578 Y110.355 E0.03290
G1 X127.465 Y110.950 E0.03290
G1 X126.256 Y111.317 E0.03290
G1 X125.000 Y111.441 E0.03290
G1 X123.744 Y111.317 E0.03290
G1 X122.535 Y110.950 E0.03290
G1 X121.475 Y110.383 E0.03133
M204 S1000
G1 X121.448 Y109.956 F7200.000
G1 F5760
G1 X120.446 Y109.554 E-0.45770
G1 F5760
G1 X119.892 Y108.879 E-0.30230
G1 E-0.04000 F2100.00000
G1 X126.696 Y110.179 F7200.000
G1 E0.80000 F2100.00000
M204 S2000
G1 F1093.749
G1 X129.897 Y106.978 E0.11934
G1 X130.158 Y106.120 E0.02365
G1 X126.120 Y110.158 E0.15053
G1 X126.031 Y110.184 E0.00245
G1 X125.437 Y110.243 E0.01575
G1 X130.243 Y105.437 E0.17920
G1 X130.286 Y105.000 E0.01157
G1 X130.268 Y104.814 E0.00492
G1 X124.814 Y110.268 E0.20334
G1 X124.270 Y110.214 E0.01442
G1 X130.214 Y104.270 E0.22163
G1 X130.184 Y103.969 E0.00798
G1 X130.122 Y103.764 E0.00565
G1 X123.764 Y110.122 E0.23708
G1 X123.305 Y109.983 E0.01264
G1 X129.983 Y103.305 E0.24899
G1 X129.884 Y102.977 E0.00904
G1 X129.824 Y102.866 E0.00332
G1 X122.866 Y109.824 E0.25944
G1 X122.476 Y109.616 E0.01165
G1 X129.616 Y102.476 E0.26620
G1 X129.408 Y102.087 E0.01165
G1 X122.087 Y109.408 E0.27297
G1 X121.755 Y109.142 E0.01121
G1 X129.142 Y101.755 E0.27544
G1 X128.873 Y101.426 E0.01120
G1 X121.426 Y108.873 E0.27763
