; generated by Slic3r 1.33.8-prusa3d-win64 on 2017-04-22 at 10:49:16

; external perimeters extrusion width = 0.45mm
; perimeters extrusion width = 0.45mm
; infill extrusion width = 0.45mm
; solid infill extrusion width = 0.45mm
; top infill extrusion width = 0.45mm

M107
M115 U3.0.10 ; tell printer latest fw version
M83  ; extruder relative mode
M104 S215 ; set extruder temp
M140 S55 ; set bed temp
M190 S55 ; wait for bed temp
M109 S215 ; wait for extruder temp
G28 W ; home all without mesh bed level
G80 ; mesh bed leveling
G1 Y-3.0 F1000.0 ; go outside pritn area
G1 X60.0 E9.0  F1000.0 ; intro line
G1 X100.0 E12.5  F1000.0 ; intro line
G21 ; set units to millimeters
G90 ; use absolute coordinates
M83 ; use relative distances for extrusion
G1 E-0.80000 F2100.00000
G1 Z0.200 F7200.000
G1 X107.917 Y98.998 F7200.000
G1 E0.80000 F2100.00000
M204 S1000
G1 F2100
G1 X118.867 Y88.038 E0.48577
G1 X119.173 Y87.778 E0.01259
G1 X119.517 Y87.563 E0.01272
G1 X119.808 Y87.431 E0.01002
G1 X120.112 Y87.333 E0.01002
G1 X120.426 Y87.271 E0.01002
G1 X120.748 Y87.246 E0.01015
G1 X129.237 Y87.246 E0.26615
G1 X129.641 Y87.281 E0.01272
G1 X130.035 Y87.376 E0.01272
G1 X130.334 Y87.490 E0.01002
G1 X130.617 Y87.638 E0.01002
G1 X130.884 Y87.821 E0.01015
G1 X131.125 Y88.031 E0.01002
G1 X141.959 Y98.864 E0.48038
G1 X142.205 Y99.150 E0.01182
G1 X142.408 Y99.463 E0.01169
G1 X142.551 Y99.762 E0.01041
G1 X142.658 Y100.080 E0.01053
G1 X142.726 Y100.409 E0.01053
G1 X142.754 Y100.744 E0.01053
G1 X142.754 Y109.237 E0.26628
G1 X142.719 Y109.641 E0.01272
G1 X142.624 Y110.035 E0.01272
G1 X142.510 Y110.334 E0.01002
G1 X142.362 Y110.617 E0.01002
G1 X142.182 Y110.881 E0.01002
G1 X141.969 Y111.125 E0.01015
G1 X131.136 Y121.959 E0.48038
G1 X130.850 Y122.205 E0.01182
G1 X130.537 Y122.408 E0.01169
G1 X130.238 Y122.551 E0.01041
G1 X129.920 Y122.658 E0.01053
G1 X129.591 Y122.726 E0.01053
G1 X129.256 Y122.754 E0.01053
G1 X120.763 Y122.754 E0.26628
G1 X120.359 Y122.719 E0.01272
G1 X119.969 Y122.626 E0.01259
G1 X119.670 Y122.512 E0.01002
G1 X119.383 Y122.362 E0.01015
G1 X119.116 Y122.179 E0.01015
G1 X118.872 Y121.966 E0.01015
G1 X108.038 Y111.133 E0.48038
G1 X107.768 Y110.814 E0.01310
G1 X107.550 Y110.458 E0.01310
G1 X107.425 Y110.177 E0.00964
G1 X107.333 Y109.888 E0.00951
G1 X107.273 Y109.587 E0.00964
G1 X107.247 Y109.284 E0.00951
G1 X107.247 Y100.722 E0.26846
G1 X107.297 Y100.270 E0.01425
G1 X107.423 Y99.829 E0.01438
G1 X107.617 Y99.418 E0.01425
G1 X107.878 Y99.044 E0.01430
G1 X108.185 Y99.265 F7200.000
G1 F2100
G1 X119.127 Y88.311 E0.48547
G1 X119.390 Y88.086 E0.01086
G1 X119.683 Y87.901 E0.01086
G1 X119.936 Y87.785 E0.00871
G1 X120.204 Y87.699 E0.00883
G1 X120.480 Y87.644 E0.00883
G1 X120.761 Y87.623 E0.00883
G1 X129.227 Y87.623 E0.26542
G1 X129.572 Y87.652 E0.01086
G1 X129.909 Y87.731 E0.01086
G1 X130.172 Y87.831 E0.00883
G1 X130.419 Y87.959 E0.00871
G1 X130.652 Y88.118 E0.00883
G1 X130.864 Y88.303 E0.00883
G1 X141.689 Y99.127 E0.47998
G1 X141.900 Y99.372 E0.01014
G1 X142.077 Y99.643 E0.01014
G1 X142.202 Y99.904 E0.00907
G1 X142.294 Y100.178 E0.00907
G1 X142.353 Y100.462 E0.00907
G1 X142.377 Y100.754 E0.00919
G1 X142.377 Y109.227 E0.26566
G1 X142.348 Y109.572 E0.01086
G1 X142.269 Y109.909 E0.01086
G1 X142.169 Y110.172 E0.00883
G1 X142.039 Y110.422 E0.00883
G1 X141.882 Y110.652 E0.00871
G1 X141.697 Y110.864 E0.00883
G1 X130.873 Y121.689 E0.47998
G1 X130.628 Y121.900 E0.01014
G1 X130.357 Y122.077 E0.01014
G1 X130.096 Y122.202 E0.00907
G1 X129.822 Y122.294 E0.00907
G1 X129.538 Y122.353 E0.00907
G1 X129.246 Y122.377 E0.00919
G1 X120.773 Y122.377 E0.26566
G1 X120.432 Y122.348 E0.01074
G1 X120.095 Y122.270 E0.01086
G1 X119.831 Y122.171 E0.00883
G1 X119.581 Y122.041 E0.00883
G1 X119.348 Y121.882 E0.00883
G1 X119.136 Y121.697 E0.00883
G1 X108.308 Y110.870 E0.48010
G1 X108.079 Y110.600 E0.01110
G1 X107.891 Y110.296 E0.01122
G1 X107.780 Y110.050 E0.00847
G1 X107.699 Y109.796 E0.00836
G1 X107.647 Y109.535 E0.00836
G1 X107.624 Y109.265 E0.00847
G1 X107.624 Y100.747 E0.26709
G1 X107.664 Y100.361 E0.01217
G1 X107.766 Y99.986 E0.01217
G1 X107.929 Y99.634 E0.01217
G1 X108.147 Y99.312 E0.01220
G1 F5760
G1 X109.697 Y97.759 E-0.76000
G1 E-0.04000 F2100.00000
G1 X128.236 Y101.764 F7200.000
G1 E0.80000 F2100.00000
G1 F1680
G1 X139.036 Y101.764 E0.33863
G1 X139.036 Y108.236 E0.20292
G1 X128.236 Y108.236 E0.33863
G1 X128.236 Y119.036 E0.33863
G1 X121.764 Y119.036 E0.20292
G1 X121.764 Y108.236 E0.33863
G1 X110.964 Y108.236 E0.33863
G1 X110.964 Y101.764 E0.20292
G1 X121.764 Y101.764 E0.33863
G1 X121.764 Y90.964 E0.33863
G1 X128.236 Y90.964 E0.20292
G1 X128.236 Y101.704 E0.33675
G1 X128.613 Y101.387 F7200.000
G1 F1680
G1 X139.413 Y101.387 E0.33863
G1 X139.413 Y108.613 E0.22656
G1 X128.613 Y108.613 E0.33863
G1 X128.613 Y119.413 E0.33863
G1 X121.387 Y119.413 E0.22656
G1 X121.387 Y108.613 E0.33863
G1 X110.587 Y108.613 E0.33863
G1 X110.587 Y101.387 E0.22656
G1 X121.387 Y101.387 E0.33863
G1 X121.387 Y90.587 E0.33863
G1 X128.613 Y90.587 E0.22656
G1 X128.613 Y101.327 E0.33675
G1 X128.990 Y101.010 F7200.000
G1 F1050
G1 X139.790 Y101.010 E0.33863
G1 X139.790 Y108.990 E0.25021
G1 X128.990 Y108.990 E0.33863
G1 X128.990 Y119.790 E0.33863
G1 X121.010 Y119.790 E0.25021
G1 X121.010 Y108.990 E0.33863
G1 X110.210 Y108.990 E0.33863
G1 X110.210 Y101.010 E0.25021
G1 X121.010 Y101.010 E0.33863
G1 X121.010 Y90.210 E0.33863
G1 X128.990 Y90.210 E0.25021
G1 X128.990 Y100.950 E0.33675
G1 X129.074 Y101.401 F7200.000
G1 F5760
G1 X131.184 Y100.962 E-0.76000
G1 E-0.04000 F2100.00000
G1 X128.550 Y101.877 F7200.000
G1 E0.80000 F2100.00000
G1 F1680
G1 X134.626 Y107.953 E0.26970
G1 X135.160 Y107.953 E0.01676
G1 X129.254 Y102.047 E0.26217
G1 X129.788 Y102.047 E0.01676
G1 X135.694 Y107.953 E0.26217
G1 X136.228 Y107.953 E0.01676
G1 X130.322 Y102.047 E0.26217
G1 X130.855 Y102.047 E0.01676
G1 X136.762 Y107.953 E0.26217
G1 X137.295 Y107.953 E0.01676
G1 X131.389 Y102.047 E0.26217
G1 X131.923 Y102.047 E0.01676
G1 X137.829 Y107.953 E0.26217
G1 X138.363 Y107.953 E0.01676
G1 X132.457 Y102.047 E0.26217
G1 X132.991 Y102.047 E0.01676
G1 X138.753 Y107.809 E0.25578
G1 X138.753 Y107.275 E0.01676
G1 X133.525 Y102.047 E0.23209
G1 X134.059 Y102.047 E0.01676
G1 X138.753 Y106.741 E0.20839
G1 X138.753 Y106.208 E0.01676
G1 X134.592 Y102.047 E0.18469
G1 X135.126 Y102.047 E0.01676
G1 X138.753 Y105.674 E0.16100
G1 X138.753 Y105.140 E0.01676
G1 X135.660 Y102.047 E0.13730
G1 X136.194 Y102.047 E0.01676
G1 X138.753 Y104.606 E0.11360
G1 X138.753 Y104.072 E0.01676
G1 X136.728 Y102.047 E0.08990
G1 X137.262 Y102.047 E0.01676
G1 X138.753 Y103.538 E0.06621
G1 X138.753 Y103.005 E0.01676
G1 X137.795 Y102.047 E0.04251
G1 X138.329 Y102.047 E0.01676
G1 X138.923 Y102.640 E0.02634
G1 F5760
G1 X138.329 Y102.047 E-0.29068
G1 F5760
G1 X137.795 Y102.047 E-0.18490
G1 F5760
G1 X138.376 Y102.628 E-0.28442
G1 E-0.04000 F2100.00000
G1 X128.123 Y91.840 F7200.000
G1 E0.80000 F2100.00000
G1 F1680
G1 X127.529 Y91.247 E0.02634
G1 X126.995 Y91.247 E0.01676
G1 X127.953 Y92.205 E0.04251
G1 X127.953 Y92.738 E0.01676
G1 X126.462 Y91.247 E0.06621
G1 X125.928 Y91.247 E0.01676
G1 X127.953 Y93.272 E0.08990
G1 X127.953 Y93.806 E0.01676
G1 X125.394 Y91.247 E0.11360
G1 X124.860 Y91.247 E0.01676
G1 X127.953 Y94.340 E0.13730
G1 X127.953 Y94.874 E0.01676
G1 X124.326 Y91.247 E0.16100
G1 X123.792 Y91.247 E0.01676
G1 X127.953 Y95.408 E0.18469
G1 X127.953 Y95.941 E0.01676
G1 X123.258 Y91.247 E0.20839
G1 X122.725 Y91.247 E0.01676
G1 X127.953 Y96.475 E0.23209
G1 X127.953 Y97.009 E0.01676
G1 X122.191 Y91.247 E0.25578
G1 X122.047 Y91.247 E0.00452
G1 X122.047 Y91.637 E0.01224
G1 X127.953 Y97.543 E0.26217
G1 X127.953 Y98.077 E0.01676
G1 X122.047 Y92.171 E0.26217
G1 X122.047 Y92.705 E0.01676
G1 X127.953 Y98.611 E0.26217
G1 X127.953 Y99.145 E0.01676
G1 X122.047 Y93.238 E0.26217
G1 X122.047 Y93.772 E0.01676
G1 X127.953 Y99.678 E0.26217
G1 X127.953 Y100.212 E0.01676
G1 X122.047 Y94.306 E0.26217
G1 X122.047 Y94.840 E0.01676
G1 X127.953 Y100.746 E0.26217
G1 X127.953 Y101.280 E0.01676
G1 X122.047 Y95.374 E0.26217
G1 X122.047 Y95.908 E0.01676
G1 X134.092 Y107.953 E0.53469
G1 X133.558 Y107.953 E0.01676
G1 X122.047 Y96.442 E0.51099
G1 X122.047 Y96.975 E0.01676
G1 X133.025 Y107.953 E0.48729
G1 X132.491 Y107.953 E0.01676
G1 X122.047 Y97.509 E0.46360
G1 X122.047 Y98.043 E0.01676
G1 X131.957 Y107.953 E0.43990
G1 X131.423 Y107.953 E0.01676
G1 X122.047 Y98.577 E0.41620
G1 X122.047 Y99.111 E0.01676
G1 X130.889 Y107.953 E0.39250
G1 X130.355 Y107.953 E0.01676
G1 X122.047 Y99.645 E0.36881
G1 X122.047 Y100.179 E0.01676
G1 X129.821 Y107.953 E0.34511
G1 X129.288 Y107.953 E0.01676
G1 X122.047 Y100.712 E0.32141
G1 X122.047 Y101.246 E0.01676
G1 X128.754 Y107.953 E0.29771
G1 X128.220 Y107.953 E0.01676
G1 X122.047 Y101.780 E0.27402
G1 X122.047 Y102.047 E0.00838
G1 X121.780 Y102.047 E0.00838
G1 X127.953 Y108.220 E0.27402
G1 X127.953 Y108.754 E0.01676
G1 X121.246 Y102.047 E0.29772
G1 X120.712 Y102.047 E0.01676
G1 X127.953 Y109.288 E0.32142
G1 X127.953 Y109.822 E0.01676
G1 X120.178 Y102.047 E0.34511
G1 X119.645 Y102.047 E0.01676
G1 X127.953 Y110.355 E0.36881
G1 X127.953 Y110.889 E0.01676
G1 X119.111 Y102.047 E0.39251
G1 X118.577 Y102.047 E0.01676
G1 X127.953 Y111.423 E0.41621
G1 X127.953 Y111.957 E0.01676
G1 X118.043 Y102.047 E0.43990
G1 X117.509 Y102.047 E0.01676
G1 X127.953 Y112.491 E0.46360
G1 X127.953 Y113.025 E0.01676
G1 X116.975 Y102.047 E0.48730
G1 X116.441 Y102.047 E0.01676
G1 X127.953 Y113.559 E0.51099
G1 X127.953 Y114.092 E0.01676
G1 X115.908 Y102.047 E0.53469
G1 X115.374 Y102.047 E0.01676
G1 X121.280 Y107.953 E0.26217
G1 X120.746 Y107.953 E0.01676
G1 X114.840 Y102.047 E0.26217
G1 X114.306 Y102.047 E0.01676
G1 X120.212 Y107.953 E0.26217
G1 X119.678 Y107.953 E0.01676
G1 X113.772 Y102.047 E0.26217
G1 X113.238 Y102.047 E0.01676
G1 X119.145 Y107.953 E0.26217
G1 X118.611 Y107.953 E0.01676
G1 X112.705 Y102.047 E0.26217
G1 X112.171 Y102.047 E0.01676
G1 X118.077 Y107.953 E0.26217
G1 X117.543 Y107.953 E0.01676
G1 X111.637 Y102.047 E0.26217
G1 X111.247 Y102.047 E0.01224
G1 X111.247 Y102.191 E0.00452
G1 X117.009 Y107.953 E0.25578
G1 X116.475 Y107.953 E0.01676
G1 X111.247 Y102.725 E0.23208
G1 X111.247 Y103.259 E0.01676
G1 X115.941 Y107.953 E0.20839
G1 X115.408 Y107.953 E0.01676
G1 X111.247 Y103.792 E0.18469
G1 X111.247 Y104.326 E0.01676
G1 X114.874 Y107.953 E0.16099
G1 X114.340 Y107.953 E0.01676
G1 X111.247 Y104.860 E0.13729
G1 X111.247 Y105.394 E0.01676
G1 X113.806 Y107.953 E0.11360
G1 X113.272 Y107.953 E0.01676
G1 X111.247 Y105.928 E0.08990
G1 X111.247 Y106.462 E0.01676
G1 X112.738 Y107.953 E0.06620
G1 X112.204 Y107.953 E0.01676
G1 X111.247 Y106.996 E0.04250
G1 X111.247 Y107.529 E0.01676
G1 X111.840 Y108.123 E0.02634
G1 F5760
G1 X111.247 Y107.529 E-0.29064
G1 F5760
G1 X111.247 Y106.996 E-0.18490
G1 F5760
G1 X111.828 Y107.576 E-0.28446
G1 E-0.04000 F2100.00000
G1 X121.877 Y118.160 F7200.000
G1 E0.80000 F2100.00000
G1 F1680
G1 X122.471 Y118.753 E0.02634
G1 X123.004 Y118.753 E0.01676
G1 X122.047 Y117.796 E0.04250
G1 X122.047 Y117.262 E0.01676
G1 X123.538 Y118.753 E0.06620
G1 X124.072 Y118.753 E0.01676
G1 X122.047 Y116.728 E0.08990
G1 X122.047 Y116.194 E0.01676
G1 X124.606 Y118.753 E0.11360
G1 X125.140 Y118.753 E0.01676
G1 X122.047 Y115.660 E0.13729
G1 X122.047 Y115.126 E0.01676
G1 X125.674 Y118.753 E0.16099
G1 X126.208 Y118.753 E0.01676
G1 X122.047 Y114.592 E0.18469
G1 X122.047 Y114.059 E0.01676
G1 X126.741 Y118.753 E0.20839
G1 X127.275 Y118.753 E0.01676
G1 X122.047 Y113.525 E0.23208
G1 X122.047 Y112.991 E0.01676
G1 X127.809 Y118.753 E0.25578
G1 X127.953 Y118.753 E0.00452
G1 X127.953 Y118.363 E0.01224
G1 X122.047 Y112.457 E0.26217
G1 X122.047 Y111.923 E0.01676
G1 X127.953 Y117.829 E0.26217
G1 X127.953 Y117.295 E0.01676
G1 X122.047 Y111.389 E0.26217
G1 X122.047 Y110.855 E0.01676
G1 X127.953 Y116.762 E0.26217
G1 X127.953 Y116.228 E0.01676
G1 X122.047 Y110.322 E0.26217
G1 X122.047 Y109.788 E0.01676
G1 X127.953 Y115.694 E0.26217
G1 X127.953 Y115.160 E0.01676
G1 X122.047 Y109.254 E0.26217
G1 X122.047 Y108.720 E0.01676
G1 X128.123 Y114.796 E0.26970
M106 S252.45
M104 S205 ; set temperature
G1 F5760
G1 X126.571 Y113.244 E-0.76000
G1 E-0.04000 F2100.00000
G1 Z0.350 F7200.000
G1 X128.139 Y101.861 F7200.000
G1 E0.80000 F2100.00000
M204 S800
G1 F2400
G1 X138.939 Y101.861 E0.28140
G1 X138.939 Y108.139 E0.16360
G1 X128.139 Y108.139 E0.28140
G1 X128.139 Y118.939 E0.28140
G1 X121.861 Y118.939 E0.16360
G1 X121.861 Y108.139 E0.28140
G1 X111.061 Y108.139 E0.28140
G1 X111.061 Y101.861 E0.16360
G1 X121.861 Y101.861 E0.28140
G1 X121.861 Y91.061 E0.28140
G1 X128.139 Y91.061 E0.16360
G1 X128.139 Y101.801 E0.27984
M204 S1000
G1 X128.557 Y101.443 F7200.000
M204 S800
G1 F2400
G1 X139.357 Y101.443 E0.28140
G1 X139.357 Y108.557 E0.18537
G1 X128.557 Y108.557 E0.28140
G1 X128.557 Y119.357 E0.28140
G1 X121.443 Y119.357 E0.18537
G1 X121.443 Y108.557 E0.28140
G1 X110.643 Y108.557 E0.28140
G1 X110.643 Y101.443 E0.18537
G1 X121.443 Y101.443 E0.28140
G1 X121.443 Y90.643 E0.28140
G1 X128.557 Y90.643 E0.18537
G1 X128.557 Y101.383 E0.27984
M204 S1000
G1 X128.975 Y101.025 F7200.000
M204 S800
G1 F1500
G1 X139.775 Y101.025 E0.28140
G1 X139.775 Y108.975 E0.20714
G1 X128.975 Y108.975 E0.28140
G1 X128.975 Y119.775 E0.28140
G1 X121.025 Y119.775 E0.20714
G1 X121.025 Y108.975 E0.28140
G1 X110.225 Y108.975 E0.28140
G1 X110.225 Y101.025 E0.20714
G1 X121.025 Y101.025 E0.28140
G1 X121.025 Y90.225 E0.28140
G1 X128.975 Y90.225 E0.20714
G1 X128.975 Y100.965 E0.27984
M204 S1000
G1 X129.059 Y101.416 F7200.000
G1 F5760
G1 X131.169 Y100.977 E-0.76000
G1 E-0.04000 F2100.00000
G1 X121.986 Y101.503 F7200.000
G1 E0.80000 F2100.00000
M204 S2000
G1 F2400
G1 X127.826 Y95.663 E0.21558
G1 X127.826 Y95.071 E0.01545
G1 X122.174 Y100.723 E0.20864
G1 X122.174 Y100.131 E0.01545
G1 X127.826 Y94.479 E0.20864
G1 X127.826 Y93.887 E0.01545
G1 X122.174 Y99.539 E0.20864
G1 X122.174 Y98.947 E0.01545
G1 X127.826 Y93.295 E0.20864
G1 X127.826 Y92.703 E0.01545
G1 X122.174 Y98.355 E0.20864
G1 X122.174 Y97.763 E0.01545
G1 X127.826 Y92.111 E0.20864
G1 X127.826 Y91.519 E0.01545
G1 X122.174 Y97.171 E0.20864
G1 X122.174 Y96.579 E0.01545
G1 X127.379 Y91.374 E0.19215
G1 X126.788 Y91.374 E0.01545
G1 X122.174 Y95.988 E0.17030
G1 X122.174 Y95.396 E0.01545
G1 X126.196 Y91.374 E0.14845
G1 X125.604 Y91.374 E0.01545
G1 X122.174 Y94.804 E0.12660
G1 X122.174 Y94.212 E0.01545
G1 X125.012 Y91.374 E0.10475
G1 X124.420 Y91.374 E0.01545
G1 X122.174 Y93.620 E0.08290
G1 X122.174 Y93.028 E0.01545
G1 X123.828 Y91.374 E0.06105
G1 X123.236 Y91.374 E0.01545
G1 X122.174 Y92.436 E0.03920
G1 X122.174 Y91.844 E0.01545
G1 X122.832 Y91.186 E0.02429
M204 S1000
G1 F5760
G1 X122.174 Y91.844 E-0.32234
G1 F5760
G1 X122.174 Y92.436 E-0.20502
G1 F5760
G1 X122.649 Y91.961 E-0.23264
G1 E-0.04000 F2100.00000
G1 X112.032 Y101.986 F7200.000
G1 E0.80000 F2100.00000
M204 S2000
G1 F2400
G1 X111.374 Y102.644 E0.02429
G1 X111.374 Y103.236 E0.01545
G1 X112.436 Y102.174 E0.03920
G1 X113.028 Y102.174 E0.01545
G1 X111.374 Y103.828 E0.06105
G1 X111.374 Y104.420 E0.01545
G1 X113.620 Y102.174 E0.08290
G1 X114.212 Y102.174 E0.01545
G1 X111.374 Y105.012 E0.10475
G1 X111.374 Y105.604 E0.01545
G1 X114.804 Y102.174 E0.12660
G1 X115.396 Y102.174 E0.01545
G1 X111.374 Y106.196 E0.14845
G1 X111.374 Y106.787 E0.01545
G1 X115.988 Y102.174 E0.17030
G1 X116.579 Y102.174 E0.01545
G1 X111.374 Y107.379 E0.19215
G1 X111.374 Y107.826 E0.01166
G1 X111.519 Y107.826 E0.00379
G1 X117.171 Y102.174 E0.20864
G1 X117.763 Y102.174 E0.01545
G1 X112.111 Y107.826 E0.20864
G1 X112.703 Y107.826 E0.01545
G1 X118.355 Y102.174 E0.20864
