; generated by Slic3r 1.33.8-prusa3d-win64 on 2017-04-09 at 09:58:56

; external perimeters extrusion width = 0.45mm
; perimeters extrusion width = 0.45mm
; infill extrusion width = 0.45mm
; solid infill extrusion width = 0.45mm
; top infill extrusion width = 0.45mm

M107
M115 U3.0.10 ; tell printer latest fw version
M83  ; extruder relative mode
M104 S215 ; set extruder temp
M140 S55 ; set bed temp
M190 S55 ; wait for bed temp
M109 S215 ; wait for extruder temp
G28 W ; home all without mesh bed level
G80 ; mesh bed leveling
G1 Y-3.0 F1000.0 ; go outside pritn area
G1 X60.0 E9.0  F1000.0 ; intro line
G1 X100.0 E12.5  F1000.0 ; intro line
G21 ; set units to millimeters
G90 ; use absolute coordinates
M83 ; use relative distances for extrusion
G1 E-0.80000 F2100.00000
G1 Z0.200 F7200.000
G1 X120.730 Y97.468 F7200.000
G1 E0.80000 F2100.00000
M204 S1000
G1 F1290.838
G1 X121.489 Y96.648 E0.03504
G1 X121.830 Y96.348 E0.01424
G1 X122.064 Y96.186 E0.00891
G1 X122.805 Y95.738 E0.02716
G1 X123.313 Y95.507 E0.01752
G1 X123.658 Y95.408 E0.01123
G1 X124.425 Y95.255 E0.02452
G1 X124.942 Y95.203 E0.01629
G1 X125.486 Y95.240 E0.01711
G1 X126.494 Y95.446 E0.03223
G1 X126.812 Y95.554 E0.01055
G1 X127.114 Y95.693 E0.01041
G1 X128.100 Y96.296 E0.03626
G1 X128.481 Y96.618 E0.01561
G1 X129.203 Y97.389 E0.03314
G1 X129.485 Y97.762 E0.01465
G1 X130.122 Y98.816 E0.03862
G1 X130.245 Y99.077 E0.00904
G1 X130.726 Y100.259 E0.04000
G1 X131.108 Y101.653 E0.04533
G1 X131.173 Y101.965 E0.01000
G1 X131.386 Y103.399 E0.04545
G1 X131.465 Y104.981 E0.04968
G1 X131.396 Y106.472 E0.04679
G1 X131.367 Y106.759 E0.00904
G1 X131.145 Y108.189 E0.04536
G1 X130.785 Y109.554 E0.04429
G1 X130.675 Y109.877 E0.01069
G1 X130.146 Y111.137 E0.04285
G1 X129.503 Y112.209 E0.03921
G1 X129.262 Y112.542 E0.01288
G1 X128.508 Y113.355 E0.03477
G1 X128.167 Y113.655 E0.01424
G1 X127.936 Y113.814 E0.00877
G1 X127.195 Y114.262 E0.02716
G1 X126.695 Y114.490 E0.01725
G1 X126.317 Y114.598 E0.01233
G1 X125.394 Y114.773 E0.02945
G1 X124.966 Y114.798 E0.01342
G1 X124.540 Y114.764 E0.01342
G1 X123.646 Y114.590 E0.02854
G1 X123.220 Y114.459 E0.01397
G1 X122.821 Y114.271 E0.01383
G1 X122.037 Y113.797 E0.02873
G1 X121.757 Y113.595 E0.01082
G1 X121.501 Y113.364 E0.01082
G1 X120.808 Y112.624 E0.03177
G1 X120.561 Y112.307 E0.01260
G1 X119.844 Y111.118 E0.04355
G1 X119.276 Y109.745 E0.04657
G1 X118.857 Y108.198 E0.05026
G1 X118.616 Y106.618 E0.05011
G1 X118.535 Y104.997 E0.05091
G1 X118.620 Y103.341 E0.05199
G1 X118.857 Y101.799 E0.04892
G1 X119.279 Y100.246 E0.05045
G1 X119.862 Y98.847 E0.04750
G1 X120.490 Y97.802 E0.03825
G1 X120.692 Y97.515 E0.01100
G1 X120.904 Y97.860 F7200.000
G1 F1290.838
G1 X121.099 Y97.617 E0.00976
G1 X121.719 Y96.953 E0.02846
G1 X122.005 Y96.689 E0.01220
G1 X122.248 Y96.516 E0.00938
G1 X122.956 Y96.086 E0.02597
G1 X123.378 Y95.885 E0.01464
G1 X123.727 Y95.779 E0.01143
G1 X124.468 Y95.631 E0.02370
G1 X124.924 Y95.580 E0.01438
G1 X125.418 Y95.611 E0.01553
G1 X126.362 Y95.801 E0.03020
G1 X126.658 Y95.898 E0.00976
G1 X126.937 Y96.027 E0.00964
G1 X127.882 Y96.604 E0.03471
G1 X128.219 Y96.890 E0.01387
G1 X128.926 Y97.645 E0.03245
G1 X129.172 Y97.973 E0.01284
G1 X129.794 Y99.003 E0.03771
G1 X130.373 Y100.393 E0.04721
G1 X130.744 Y101.750 E0.04410
G1 X130.801 Y102.026 E0.00887
G1 X131.011 Y103.433 E0.04458
G1 X131.087 Y104.983 E0.04868
G1 X130.994 Y106.705 E0.05407
G1 X130.777 Y108.109 E0.04455
G1 X130.426 Y109.439 E0.04310
G1 X130.326 Y109.734 E0.00976
G1 X129.813 Y110.961 E0.04171
G1 X129.187 Y112.004 E0.03815
G1 X128.978 Y112.293 E0.01118
G1 X128.244 Y113.085 E0.03385
G1 X127.947 Y113.348 E0.01246
G1 X127.012 Y113.933 E0.03457
G1 X126.561 Y114.138 E0.01553
G1 X126.229 Y114.231 E0.01079
G1 X125.346 Y114.399 E0.02819
G1 X124.962 Y114.421 E0.01207
G1 X124.578 Y114.388 E0.01207
G1 X123.729 Y114.222 E0.02712
G1 X123.346 Y114.103 E0.01259
G1 X122.994 Y113.936 E0.01220
G1 X122.219 Y113.466 E0.02842
G1 X121.978 Y113.289 E0.00938
G1 X121.757 Y113.087 E0.00938
G1 X121.090 Y112.373 E0.03065
G1 X120.864 Y112.082 E0.01156
G1 X120.180 Y110.946 E0.04156
G1 X119.629 Y109.615 E0.04516
G1 X119.225 Y108.119 E0.04860
G1 X118.991 Y106.583 E0.04870
G1 X118.913 Y105.000 E0.04970
G1 X118.992 Y103.409 E0.04997
G1 X119.225 Y101.882 E0.04841
G1 X119.623 Y100.405 E0.04798
G1 X120.180 Y99.054 E0.04582
G1 X120.870 Y97.909 E0.04192
G1 F5760
G1 X121.099 Y97.617 E-0.12861
G1 F5760
G1 X121.719 Y96.953 E-0.31435
G1 F5760
G1 X122.005 Y96.689 E-0.13479
G1 F5760
G1 X122.248 Y96.516 E-0.10361
G1 F5760
G1 X122.442 Y96.398 E-0.07863
G1 E-0.04000 F2100.00000
G1 X120.527 Y99.204 F7200.000
G1 E0.80000 F2100.00000
G1 F1290.838
G1 X121.128 Y98.204 E0.03658
G1 X121.283 Y97.983 E0.00847
G1 X122.028 Y97.176 E0.03443
G1 X122.337 Y96.911 E0.01276
G1 X123.179 Y96.393 E0.03100
G1 X123.560 Y96.219 E0.01312
G1 X123.838 Y96.140 E0.00907
G1 X124.586 Y95.993 E0.02388
G1 X125.044 Y95.957 E0.01443
G1 X125.449 Y95.999 E0.01276
G1 X126.177 Y96.143 E0.02326
G1 X126.476 Y96.232 E0.00979
G1 X126.838 Y96.402 E0.01253
G1 X127.710 Y96.945 E0.03223
G1 X127.986 Y97.190 E0.01157
G1 X128.745 Y98.019 E0.03523
G1 X129.399 Y99.069 E0.03877
G1 X129.551 Y99.371 E0.01062
G1 X130.025 Y100.540 E0.03955
G1 X130.377 Y101.839 E0.04218
G1 X130.635 Y103.464 E0.05159
G1 X130.710 Y104.993 E0.04802
G1 X130.643 Y106.418 E0.04470
G1 X130.407 Y108.035 E0.05126
G1 X130.029 Y109.449 E0.04589
G1 X129.555 Y110.620 E0.03961
G1 X129.409 Y110.913 E0.01026
G1 X128.824 Y111.870 E0.03515
G1 X128.600 Y112.153 E0.01133
G1 X127.985 Y112.811 E0.02822
G1 X127.790 Y112.992 E0.00836
G1 X127.556 Y113.162 E0.00907
G1 X126.883 Y113.571 E0.02468
G1 X126.568 Y113.731 E0.01110
G1 X126.206 Y113.850 E0.01193
G1 X125.448 Y114.001 E0.02424
G1 X125.199 Y114.035 E0.00788
G1 X124.948 Y114.043 E0.00788
G1 X124.611 Y114.012 E0.01062
G1 X123.819 Y113.856 E0.02529
G1 X123.542 Y113.774 E0.00907
G1 X123.276 Y113.660 E0.00907
G1 X122.469 Y113.178 E0.02949
G1 X122.239 Y113.015 E0.00883
G1 X122.022 Y112.818 E0.00919
G1 X121.410 Y112.164 E0.02808
G1 X121.134 Y111.805 E0.01419
G1 X120.590 Y110.912 E0.03281
G1 X120.450 Y110.632 E0.00979
G1 X119.971 Y109.449 E0.04002
G1 X119.592 Y108.032 E0.04600
G1 X119.365 Y106.536 E0.04742
G1 X119.290 Y104.991 E0.04850
G1 X119.366 Y103.461 E0.04804
G1 X119.595 Y101.957 E0.04769
G1 X119.975 Y100.540 E0.04600
G1 X120.500 Y99.257 E0.04346
G1 F5760
G1 X121.128 Y98.204 E-0.42484
G1 F5760
G1 X121.283 Y97.983 E-0.09362
G1 F5760
G1 X121.756 Y97.470 E-0.24154
G1 E-0.04000 F2100.00000
G1 X125.000 Y99.316 F7200.000
G1 E0.80000 F2100.00000
G1 F900.000
G1 X125.296 Y99.374 E0.00947
G1 X125.662 Y99.596 E0.01342
G1 X126.080 Y100.043 E0.01918
G1 X126.494 Y100.722 E0.02494
G1 X126.856 Y101.605 E0.02991
G1 X127.134 Y102.646 E0.03379
G1 X127.309 Y103.796 E0.03645
G1 X127.368 Y105.000 E0.03781
G1 X127.309 Y106.204 E0.03781
G1 X127.134 Y107.354 E0.03645
G1 X126.856 Y108.395 E0.03379
G1 X126.494 Y109.278 E0.02991
G1 X126.080 Y109.957 E0.02494
G1 X125.662 Y110.404 E0.01918
G1 X125.296 Y110.626 E0.01342
G1 X125.000 Y110.684 E0.00947
G1 X124.704 Y110.626 E0.00947
G1 X124.338 Y110.404 E0.01342
G1 X123.920 Y109.957 E0.01918
G1 X123.506 Y109.278 E0.02494
G1 X123.144 Y108.395 E0.02991
G1 X122.866 Y107.354 E0.03379
G1 X122.691 Y106.204 E0.03645
G1 X122.632 Y105.000 E0.03781
G1 X122.691 Y103.796 E0.03781
G1 X122.866 Y102.646 E0.03645
G1 X123.144 Y101.605 E0.03379
G1 X123.506 Y100.722 E0.02991
G1 X123.920 Y100.043 E0.02494
G1 X124.338 Y99.596 E0.01918
G1 X124.704 Y99.374 E0.01342
G1 X124.941 Y99.328 E0.00759
G1 X125.000 Y98.932 F7200.000
G1 F900.000
G1 X125.435 Y99.017 E0.01389
G1 X125.902 Y99.301 E0.01714
G1 X126.382 Y99.814 E0.02203
G1 X126.832 Y100.552 E0.02709
G1 X127.214 Y101.484 E0.03160
G1 X127.504 Y102.569 E0.03521
G1 X127.684 Y103.758 E0.03771
G1 X127.746 Y105.000 E0.03899
G1 X127.684 Y106.242 E0.03899
G1 X127.504 Y107.431 E0.03771
G1 X127.214 Y108.516 E0.03521
G1 X126.832 Y109.448 E0.03160
G1 X126.382 Y110.186 E0.02709
G1 X125.902 Y110.699 E0.02203
G1 X125.435 Y110.983 E0.01714
G1 X125.000 Y111.068 E0.01389
G1 X124.565 Y110.983 E0.01389
G1 X124.098 Y110.699 E0.01714
G1 X123.618 Y110.186 E0.02203
G1 X123.168 Y109.448 E0.02709
G1 X122.786 Y108.516 E0.03160
G1 X122.496 Y107.431 E0.03521
G1 X122.316 Y106.242 E0.03771
G1 X122.254 Y105.000 E0.03899
G1 X122.316 Y103.758 E0.03899
G1 X122.496 Y102.569 E0.03771
G1 X122.786 Y101.484 E0.03521
G1 X123.168 Y100.552 E0.03160
G1 X123.618 Y99.814 E0.02709
G1 X124.098 Y99.301 E0.02203
G1 X124.565 Y99.017 E0.01714
G1 X124.941 Y98.943 E0.01201
G1 X125.000 Y98.547 F7200.000
G1 F900.000
G1 X125.573 Y98.660 E0.01832
G1 X126.142 Y99.005 E0.02086
G1 X126.684 Y99.585 E0.02487
G1 X127.169 Y100.381 E0.02924
G1 X127.572 Y101.363 E0.03330
G1 X127.874 Y102.492 E0.03662
G1 X128.060 Y103.720 E0.03896
G1 X128.123 Y105.000 E0.04017
G1 X128.060 Y106.280 E0.04017
G1 X127.874 Y107.508 E0.03896
G1 X127.572 Y108.637 E0.03662
G1 X127.169 Y109.619 E0.03330
G1 X126.684 Y110.415 E0.02924
G1 X126.142 Y110.995 E0.02487
G1 X125.573 Y111.340 E0.02086
G1 X125.000 Y111.453 E0.01832
G1 X124.427 Y111.340 E0.01832
G1 X123.858 Y110.995 E0.02086
G1 X123.316 Y110.415 E0.02487
G1 X122.831 Y109.619 E0.02924
G1 X122.428 Y108.637 E0.03330
G1 X122.126 Y107.508 E0.03662
G1 X121.940 Y106.280 E0.03896
G1 X121.877 Y105.000 E0.04017
G1 X121.940 Y103.720 E0.04017
G1 X122.126 Y102.492 E0.03896
G1 X122.428 Y101.363 E0.03662
G1 X122.831 Y100.381 E0.03330
G1 X123.316 Y99.585 E0.02924
G1 X123.858 Y99.005 E0.02487
G1 X124.427 Y98.660 E0.02086
G1 X124.941 Y98.559 E0.01644
G1 X125.199 Y98.894 F7200.000
G1 F5760
G1 X125.573 Y98.660 E-0.22171
G1 F5760
G1 X126.142 Y99.005 E-0.23042
G1 F5760
G1 X126.684 Y99.585 E-0.27470
G1 F5760
G1 X126.734 Y99.666 E-0.03316
G1 E-0.04000 F2100.00000
G1 X126.325 Y100.663 F7200.000
G1 E0.80000 F2100.00000
G1 F1032.671
G1 X125.477 Y99.815 E0.03804
G1 X125.192 Y99.642 E0.01056
G1 X125.000 Y99.604 E0.00622
G1 X124.781 Y99.658 E0.00715
G1 X126.427 Y101.304 E0.07379
G1 X126.588 Y101.695 E0.01342
G1 X126.700 Y102.116 E0.01381
G1 X124.462 Y99.878 E0.10037
G1 X124.201 Y100.157 E0.01210
G1 X126.877 Y102.832 E0.11997
G1 X126.973 Y103.468 E0.02039
G1 X123.985 Y100.480 E0.13398
G1 X123.781 Y100.815 E0.01244
G1 X127.039 Y104.073 E0.14611
G1 X127.067 Y104.641 E0.01801
G1 X123.619 Y101.192 E0.15462
G1 X123.462 Y101.575 E0.01310
G1 X127.076 Y105.188 E0.16203
G1 X127.050 Y105.702 E0.01632
G1 X123.335 Y101.987 E0.16661
G1 X123.221 Y102.412 E0.01397
G1 X127.021 Y106.213 E0.17042
G1 X126.950 Y106.681 E0.01502
G1 X123.121 Y102.851 E0.17173
G1 X123.050 Y103.319 E0.01502
G1 X126.879 Y107.149 E0.17173
G1 X126.779 Y107.588 E0.01428
G1 X122.979 Y103.788 E0.17042
G1 X122.950 Y104.298 E0.01621
G1 X126.665 Y108.014 E0.16661
G1 X126.588 Y108.305 E0.00955
G1 X126.538 Y108.425 E0.00414
G1 X122.924 Y104.812 E0.16203
G1 X122.933 Y105.360 E0.01737
G1 X126.381 Y108.808 E0.15462
G1 X126.219 Y109.185 E0.01302
G1 X122.961 Y105.927 E0.14611
G1 X122.973 Y106.176 E0.00792
G1 X123.027 Y106.532 E0.01142
G1 X126.015 Y109.520 E0.13398
G1 X125.854 Y109.785 E0.00983
G1 X125.799 Y109.843 E0.00254
G1 X123.123 Y107.168 E0.11997
G1 X123.300 Y107.884 E0.02338
G1 X125.538 Y110.122 E0.10036
G1 X125.482 Y110.182 E0.00260
G1 X125.219 Y110.342 E0.00977
G1 X123.262 Y108.385 E0.08774
G1 F5760
G1 X124.814 Y109.937 E-0.76000
G1 E-0.04000 F2100.00000
G1 X123.675 Y109.337 F7200.000
G1 E0.80000 F2100.00000
G1 F1032.671
G1 X124.883 Y110.546 E0.05419
M106 S255
M104 S205 ; set temperature
G1 F5760
G1 X123.675 Y109.337 E-0.59197
G1 E-0.20803 F2100.00000
G1 Z0.350 F7200.000
G1 X124.880 Y110.562 F7200.000
G1 E0.80000 F2100.00000
M204 S800
G1 F900.000
G1 X124.739 Y110.534 E0.00375
G1 X124.399 Y110.328 E0.01036
G1 X123.997 Y109.898 E0.01534
G1 X123.592 Y109.234 E0.02027
G1 X123.236 Y108.364 E0.02449
G1 X122.960 Y107.334 E0.02778
G1 X122.787 Y106.195 E0.03003
G1 X122.729 Y105.000 E0.03117
G1 X122.787 Y103.805 E0.03117
G1 X122.960 Y102.666 E0.03003
G1 X123.236 Y101.636 E0.02778
G1 X123.592 Y100.766 E0.02449
G1 X123.997 Y100.102 E0.02027
G1 X124.399 Y99.672 E0.01534
G1 X124.739 Y99.466 E0.01036
G1 X125.000 Y99.414 E0.00693
G1 X125.261 Y99.466 E0.00693
G1 X125.601 Y99.672 E0.01036
G1 X126.003 Y100.102 E0.01534
G1 X126.408 Y100.766 E0.02027
G1 X126.764 Y101.636 E0.02449
G1 X127.040 Y102.666 E0.02778
G1 X127.213 Y103.805 E0.03003
G1 X127.271 Y105.000 E0.03117
G1 X127.213 Y106.195 E0.03117
G1 X127.040 Y107.334 E0.03003
G1 X126.764 Y108.364 E0.02778
G1 X126.408 Y109.234 E0.02449
G1 X126.003 Y109.898 E0.02027
G1 X125.601 Y110.328 E0.01534
G1 X125.261 Y110.534 E0.01036
G1 X125.000 Y110.586 E0.00693
G1 X124.939 Y110.574 E0.00162
M204 S1000
G1 X125.000 Y111.012 F7200.000
M204 S800
G1 F900.000
G1 X124.586 Y110.930 E0.01100
G1 X124.133 Y110.655 E0.01378
G1 X123.663 Y110.152 E0.01795
G1 X123.218 Y109.423 E0.02225
G1 X122.839 Y108.498 E0.02605
G1 X122.551 Y107.420 E0.02908
G1 X122.371 Y106.236 E0.03118
G1 X122.310 Y105.000 E0.03226
G1 X122.371 Y103.764 E0.03226
G1 X122.551 Y102.580 E0.03118
G1 X122.839 Y101.502 E0.02908
G1 X123.218 Y100.577 E0.02605
G1 X123.663 Y99.848 E0.02225
G1 X124.133 Y99.345 E0.01795
G1 X124.586 Y99.070 E0.01378
G1 X125.000 Y98.988 E0.01100
G1 X125.414 Y99.070 E0.01100
G1 X125.867 Y99.345 E0.01378
G1 X126.337 Y99.848 E0.01795
G1 X126.782 Y100.577 E0.02225
G1 X127.161 Y101.502 E0.02605
G1 X127.449 Y102.580 E0.02908
G1 X127.629 Y103.764 E0.03118
G1 X127.690 Y105.000 E0.03226
G1 X127.629 Y106.236 E0.03226
G1 X127.449 Y107.420 E0.03118
G1 X127.161 Y108.498 E0.02908
G1 X126.782 Y109.423 E0.02605
G1 X126.337 Y110.152 E0.02225
G1 X125.867 Y110.655 E0.01795
G1 X125.414 Y110.930 E0.01378
G1 X125.059 Y111.000 E0.00944
M204 S1000
G1 X125.000 Y111.437 F7200.000
M204 S800
G1 F900.000
G1 X124.432 Y111.326 E0.01508
G1 X123.868 Y110.983 E0.01721
G1 X123.328 Y110.406 E0.02057
G1 X122.844 Y109.612 E0.02423
G1 X122.442 Y108.632 E0.02761
G1 X122.141 Y107.505 E0.03038
G1 X121.955 Y106.278 E0.03234
G1 X121.892 Y105.000 E0.03334
G1 X121.955 Y103.722 E0.03334
G1 X122.141 Y102.495 E0.03234
G1 X122.442 Y101.368 E0.03038
G1 X122.844 Y100.388 E0.02761
G1 X123.328 Y99.594 E0.02423
G1 X123.868 Y99.017 E0.02057
G1 X124.432 Y98.674 E0.01721
G1 X125.000 Y98.563 E0.01508
G1 X125.568 Y98.674 E0.01508
G1 X126.132 Y99.017 E0.01721
G1 X126.672 Y99.594 E0.02057
G1 X127.156 Y100.388 E0.02423
G1 X127.558 Y101.368 E0.02761
G1 X127.859 Y102.495 E0.03038
G1 X128.045 Y103.722 E0.03234
G1 X128.108 Y105.000 E0.03334
G1 X128.045 Y106.278 E0.03334
G1 X127.859 Y107.505 E0.03234
G1 X127.558 Y108.632 E0.03038
G1 X127.156 Y109.612 E0.02761
G1 X126.672 Y110.406 E0.02423
G1 X126.132 Y110.983 E0.02057
G1 X125.568 Y111.326 E0.01721
G1 X125.059 Y111.426 E0.01351
M204 S1000
G1 X124.801 Y111.090 F7200.000
G1 X125.023 Y110.453 F7200.000
M204 S2000
G1 F900.000
G1 X126.290 Y109.187 E0.04808
M204 S1000
G1 F5760
G1 X125.023 Y110.453 E-0.62057
G1 E-0.17943 F2100.00000
G1 X124.578 Y110.290 F7200.000
G1 E0.80000 F2100.00000
M204 S2000
G1 F900.000
G1 X126.372 Y108.496 E0.06807
G1 X126.467 Y108.264 E0.00674
G1 X126.639 Y107.620 E0.01787
G1 X124.395 Y109.865 E0.08516
G1 X124.248 Y109.708 E0.00576
G1 X124.133 Y109.518 E0.00595
G1 X126.795 Y106.855 E0.10105
G1 X126.902 Y106.141 E0.01938
G1 X123.902 Y109.140 E0.11381
G1 X123.718 Y108.715 E0.01242
G1 X126.933 Y105.501 E0.12198
G1 X126.951 Y104.874 E0.01683
G1 X123.541 Y108.284 E0.12940
G1 X123.411 Y107.806 E0.01329
G1 X126.923 Y104.294 E0.13328
G1 X126.900 Y103.837 E0.01229
G1 X126.883 Y103.725 E0.00303
G1 X123.282 Y107.326 E0.13665
G1 X123.197 Y106.803 E0.01421
G1 X126.803 Y103.197 E0.13686
